ncols        112
nrows        56
xllcorner    26.344305544444
yllcorner    50.460972233333
cellsize     0.000277777778
 198.40869140625 198.40869140625 200.067626953125 201.319580078125 201.319580078125 201.7538604736328125 202.174285888671875 202.174285888671875 202.5157470703125 202.4240875244140625 202.4240875244140625 202.8370361328125 202.953125 202.953125 203.0518035888671875 203.130279541015625 203.130279541015625 203.3016815185546875 203.7896270751953125 203.7896270751953125 204.05084228515625 204.1773529052734375 204.1773529052734375 204.3244781494140625 204.7168731689453125 204.7168731689453125 205.076507568359375 205.4593505859375 205.4593505859375 205.3383941650390625 205.778411865234375 205.778411865234375 206.1483001708984375 206.0581817626953125 206.0581817626953125 205.981170654296875 206.31475830078125 206.31475830078125 206.2225189208984375 206.1632843017578125 206.1632843017578125 205.947265625 205.8962554931640625 205.8962554931640625 206.44915771484375 207.2001800537109375 207.2001800537109375 207.1984100341796875 207.1052398681640625 207.1052398681640625 207.8010406494140625 207.887420654296875 207.887420654296875 208.94708251953125 208.13677978515625 208.13677978515625 207.6105499267578125 208.079345703125 208.079345703125 207.65655517578125 207.3707122802734375 207.3707122802734375 206.150909423828125 208.0597076416015625 208.0597076416015625 208.1377105712890625 208.073699951171875 208.073699951171875 208.6058349609375 208.1314239501953125 208.1314239501953125 209.499755859375 209.0333709716796875 209.0333709716796875 208.8607940673828125 210.148468017578125 210.148468017578125 209.46380615234375 210.80340576171875 210.80340576171875 210.3129730224609375 207.63983154296875 207.63983154296875 208.7400665283203125 211.6573028564453125 211.6573028564453125 212.37371826171875 214.402740478515625 214.402740478515625 213.7196044921875 207.6759185791015625 207.6759185791015625 207.6511688232421875 209.2325439453125 209.2325439453125 207.594757080078125 207.8353271484375 207.8353271484375 205.7532958984375 204.479736328125 204.479736328125 204.3859100341796875 204.688079833984375 204.688079833984375 204.1216583251953125 203.1167144775390625 203.1167144775390625 202.211456298828125 202.1991424560546875 202.1991424560546875 202.5286407470703125 202.8426971435546875
 197.7010498046875 197.7010498046875 199.3731536865234375 199.77203369140625 199.77203369140625 199.7094879150390625 200.115234375 200.115234375 200.7051239013671875 201.329833984375 201.329833984375 202.0960693359375 201.7440338134765625 201.7440338134765625 201.544586181640625 201.6320953369140625 201.6320953369140625 202.330596923828125 203.0016326904296875 203.0016326904296875 203.0774383544921875 203.011566162109375 203.011566162109375 203.3012542724609375 203.5667877197265625 203.5667877197265625 203.9442291259765625 204.4128265380859375 204.4128265380859375 204.5142364501953125 204.85601806640625 204.85601806640625 205.319610595703125 205.313995361328125 205.313995361328125 205.2795867919921875 205.347259521484375 205.347259521484375 205.8309783935546875 205.5008544921875 205.5008544921875 205.229095458984375 205.6361846923828125 205.6361846923828125 206.381195068359375 206.6515655517578125 206.6515655517578125 206.4988250732421875 206.62335205078125 206.62335205078125 207.1848602294921875 207.37969970703125 207.37969970703125 207.9577789306640625 208.2839813232421875 208.2839813232421875 208.647857666015625 209.7717742919921875 209.7717742919921875 207.3922576904296875 207.3189239501953125 207.3189239501953125 206.8969573974609375 207.1453704833984375 207.1453704833984375 207.693450927734375 207.651824951171875 207.651824951171875 207.9539642333984375 208.325897216796875 208.325897216796875 209.1266632080078125 208.1925048828125 208.1925048828125 208.3534698486328125 208.2441253662109375 208.2441253662109375 208.2049102783203125 209.00933837890625 209.00933837890625 208.7869720458984375 208.34051513671875 208.34051513671875 208.46893310546875 209.0482330322265625 209.0482330322265625 210.2760772705078125 213.310577392578125 213.310577392578125 215.045745849609375 208.61749267578125 208.61749267578125 208.425079345703125 209.1302032470703125 209.1302032470703125 208.531890869140625 206.679718017578125 206.679718017578125 205.1717071533203125 204.784271240234375 204.784271240234375 204.759735107421875 204.79193115234375 204.79193115234375 204.0939483642578125 203.274505615234375 203.274505615234375 202.791412353515625 202.972259521484375 202.972259521484375 203.036895751953125 203.4882354736328125
 197.351318359375 197.351318359375 197.2683258056640625 197.78509521484375 197.78509521484375 198.6608428955078125 199.3567962646484375 199.3567962646484375 200.2071380615234375 200.964630126953125 200.964630126953125 201.6002197265625 200.9487457275390625 200.9487457275390625 200.7984619140625 201.27044677734375 201.27044677734375 202.0937957763671875 202.7067718505859375 202.7067718505859375 202.4445037841796875 202.180084228515625 202.180084228515625 202.717864990234375 202.6746368408203125 202.6746368408203125 203.0264434814453125 203.4331512451171875 203.4331512451171875 203.6949920654296875 204.2028656005859375 204.2028656005859375 204.452423095703125 204.243316650390625 204.243316650390625 204.2418670654296875 204.179290771484375 204.179290771484375 204.559295654296875 204.4281463623046875 204.4281463623046875 204.7164306640625 205.053802490234375 205.053802490234375 205.394805908203125 205.684234619140625 205.684234619140625 205.7317352294921875 206.6856231689453125 206.6856231689453125 207.229339599609375 207.1221923828125 207.1221923828125 207.2103729248046875 207.5324249267578125 207.5324249267578125 208.378204345703125 209.3515625 209.3515625 208.2456817626953125 209.0246429443359375 209.0246429443359375 209.1105194091796875 208.9730224609375 208.9730224609375 208.49945068359375 207.5560302734375 207.5560302734375 207.066253662109375 206.922454833984375 206.922454833984375 207.1413726806640625 207.2518463134765625 207.2518463134765625 207.8950958251953125 208.2790985107421875 208.2790985107421875 208.284576416015625 208.6519775390625 208.6519775390625 210.228851318359375 209.186614990234375 209.186614990234375 209.687774658203125 208.337646484375 208.337646484375 208.4390716552734375 209.4858551025390625 209.4858551025390625 210.633636474609375 207.8664093017578125 207.8664093017578125 207.475738525390625 207.388031005859375 207.388031005859375 207.886138916015625 206.20050048828125 206.20050048828125 205.3771209716796875 205.1295013427734375 205.1295013427734375 204.74609375 204.644744873046875 204.644744873046875 203.94866943359375 203.9658203125 203.9658203125 203.7687225341796875 203.5097503662109375 203.5097503662109375 203.3755035400390625 203.44110107421875
 197.344512939453125 197.344512939453125 198.34588623046875 196.7374114990234375 196.7374114990234375 197.5311737060546875 198.078033447265625 198.078033447265625 198.92950439453125 199.7151947021484375 199.7151947021484375 200.285400390625 199.8079376220703125 199.8079376220703125 199.643707275390625 200.733123779296875 200.733123779296875 201.900054931640625 202.4016265869140625 202.4016265869140625 202.0312042236328125 202.5026397705078125 202.5026397705078125 203.03656005859375 202.9523468017578125 202.9523468017578125 203.231597900390625 203.451141357421875 203.451141357421875 203.6293182373046875 203.913330078125 203.913330078125 203.7353057861328125 203.637725830078125 203.637725830078125 203.1186981201171875 203.0282440185546875 203.0282440185546875 203.4784698486328125 204.05157470703125 204.05157470703125 204.790618896484375 204.7903900146484375 204.7903900146484375 204.6310882568359375 205.3863525390625 205.3863525390625 205.9514312744140625 206.5051116943359375 206.5051116943359375 207.1674957275390625 207.2213897705078125 207.2213897705078125 207.37420654296875 207.526641845703125 207.526641845703125 207.415985107421875 207.189056396484375 207.189056396484375 207.86273193359375 208.9731903076171875 208.9731903076171875 209.201171875 208.4480438232421875 208.4480438232421875 208.080078125 207.402191162109375 207.402191162109375 207.0994873046875 207.3674468994140625 207.3674468994140625 207.248382568359375 207.2293853759765625 207.2293853759765625 207.422637939453125 207.3199615478515625 207.3199615478515625 206.986358642578125 207.8567047119140625 207.8567047119140625 207.1614227294921875 207.9897918701171875 207.9897918701171875 208.54608154296875 207.88873291015625 207.88873291015625 207.8705596923828125 207.86474609375 207.86474609375 208.3331756591796875 207.5009002685546875 207.5009002685546875 206.9415130615234375 205.2701568603515625 205.2701568603515625 205.765380859375 205.25091552734375 205.25091552734375 204.488433837890625 204.0551910400390625 204.0551910400390625 204.1015167236328125 204.2463226318359375 204.2463226318359375 204.2828826904296875 203.99237060546875 203.99237060546875 203.7267913818359375 203.2892913818359375 203.2892913818359375 203.4781036376953125 203.4794921875
 196.754425048828125 196.754425048828125 198.2125244140625 197.1331939697265625 197.1331939697265625 196.6476593017578125 197.014801025390625 197.014801025390625 196.925811767578125 197.3397979736328125 197.3397979736328125 198.036285400390625 197.8984527587890625 197.8984527587890625 198.4830322265625 199.57080078125 199.57080078125 200.3712615966796875 200.857147216796875 200.857147216796875 201.2782440185546875 201.981231689453125 201.981231689453125 202.932220458984375 203.3730621337890625 203.3730621337890625 203.6861572265625 203.796112060546875 203.796112060546875 203.918609619140625 204.0121612548828125 204.0121612548828125 203.6825408935546875 202.6337127685546875 202.6337127685546875 202.2935333251953125 202.382415771484375 202.382415771484375 203.672698974609375 204.518310546875 204.518310546875 205.0398101806640625 205.02825927734375 205.02825927734375 205.2163238525390625 205.955047607421875 205.955047607421875 206.477264404296875 206.7316741943359375 206.7316741943359375 207.2396087646484375 207.498779296875 207.498779296875 207.4753570556640625 207.4720458984375 207.4720458984375 206.9044342041015625 206.633544921875 206.633544921875 207.083892822265625 207.2059478759765625 207.2059478759765625 207.5418548583984375 207.2738494873046875 207.2738494873046875 207.113922119140625 207.36968994140625 207.36968994140625 207.406585693359375 207.081878662109375 207.081878662109375 207.1488800048828125 207.2003936767578125 207.2003936767578125 207.4818572998046875 207.1333770751953125 207.1333770751953125 207.5368804931640625 207.627716064453125 207.627716064453125 207.0532379150390625 207.1675567626953125 207.1675567626953125 206.86016845703125 207.0628814697265625 207.0628814697265625 206.92449951171875 206.6432952880859375 206.6432952880859375 206.7448272705078125 206.22662353515625 206.22662353515625 206.3111724853515625 203.7828369140625 203.7828369140625 204.9456024169921875 205.35009765625 205.35009765625 204.8134307861328125 203.7872467041015625 203.7872467041015625 203.1990509033203125 203.15216064453125 203.15216064453125 203.58953857421875 203.4898681640625 203.4898681640625 203.36651611328125 203.24029541015625 203.24029541015625 203.662078857421875 203.01788330078125
 196.834228515625 196.834228515625 197.7380218505859375 197.4629669189453125 197.4629669189453125 196.49755859375 197.0940399169921875 197.0940399169921875 198.683135986328125 196.5288238525390625 196.5288238525390625 195.413360595703125 196.5735321044921875 196.5735321044921875 197.160247802734375 198.0067901611328125 198.0067901611328125 198.7436065673828125 199.3480224609375 199.3480224609375 200.019134521484375 200.6595611572265625 200.6595611572265625 201.769134521484375 202.861083984375 202.861083984375 203.435516357421875 203.7457122802734375 203.7457122802734375 203.6785888671875 203.4398651123046875 203.4398651123046875 202.81695556640625 201.7867889404296875 201.7867889404296875 201.633697509765625 202.596710205078125 202.596710205078125 204.0329742431640625 204.6108245849609375 204.6108245849609375 204.9442291259765625 205.3267974853515625 205.3267974853515625 205.42596435546875 205.821014404296875 205.821014404296875 206.40753173828125 206.634185791015625 206.634185791015625 207.125 207.42047119140625 207.42047119140625 207.3185577392578125 207.255889892578125 207.255889892578125 206.7794952392578125 206.3786773681640625 206.3786773681640625 206.6560821533203125 206.6221160888671875 206.6221160888671875 206.6805419921875 206.719207763671875 206.719207763671875 206.43896484375 206.9698028564453125 206.9698028564453125 206.7034454345703125 207.3083648681640625 207.3083648681640625 208.086090087890625 207.0028076171875 207.0028076171875 207.85888671875 206.6804046630859375 206.6804046630859375 207.2400360107421875 206.90814208984375 206.90814208984375 207.1734771728515625 206.81146240234375 206.81146240234375 206.1611328125 206.5341796875 206.5341796875 206.6585845947265625 206.605712890625 206.605712890625 205.792724609375 205.684661865234375 205.684661865234375 205.946624755859375 203.65423583984375 203.65423583984375 204.3925933837890625 205.5453643798828125 205.5453643798828125 204.7144927978515625 203.6048736572265625 203.6048736572265625 203.2564697265625 202.667327880859375 202.667327880859375 203.342041015625 203.3630828857421875 203.3630828857421875 203.769866943359375 203.2398681640625 203.2398681640625 203.0177764892578125 202.3079071044921875
 198.42529296875 198.42529296875 197.89093017578125 197.68359375 197.68359375 196.9975738525390625 196.4082489013671875 196.4082489013671875 197.35260009765625 196.6834259033203125 196.6834259033203125 195.3118896484375 196.94598388671875 196.94598388671875 196.7696075439453125 196.3481597900390625 196.3481597900390625 196.8629913330078125 197.8972320556640625 197.8972320556640625 198.6127777099609375 199.756866455078125 199.756866455078125 201.0919342041015625 202.2765960693359375 202.2765960693359375 202.8150482177734375 202.899749755859375 202.899749755859375 202.898895263671875 202.3951416015625 202.3951416015625 201.2938690185546875 200.8231964111328125 200.8231964111328125 201.029510498046875 203.199310302734375 203.199310302734375 204.3308563232421875 204.552764892578125 204.552764892578125 204.92633056640625 205.2426300048828125 205.2426300048828125 205.6446685791015625 205.580078125 205.580078125 205.7023162841796875 206.12060546875 206.12060546875 206.3717803955078125 206.703765869140625 206.703765869140625 206.7105865478515625 206.822662353515625 206.822662353515625 206.710052490234375 206.07220458984375 206.07220458984375 206.1290435791015625 205.944427490234375 205.944427490234375 205.8772125244140625 206.026336669921875 206.026336669921875 205.9163055419921875 206.0140838623046875 206.0140838623046875 206.0850830078125 206.560455322265625 206.560455322265625 206.972503662109375 207.403411865234375 207.403411865234375 207.9794464111328125 206.8722991943359375 206.8722991943359375 207.6651153564453125 206.6181640625 206.6181640625 206.6532745361328125 205.9955291748046875 205.9955291748046875 206.1685791015625 207.5274505615234375 207.5274505615234375 206.069854736328125 206.1160125732421875 206.1160125732421875 205.556793212890625 205.13739013671875 205.13739013671875 205.362152099609375 204.1173095703125 204.1173095703125 203.57672119140625 203.837677001953125 203.837677001953125 204.7437896728515625 204.6150360107421875 204.6150360107421875 203.3121795654296875 203.4700469970703125 203.4700469970703125 203.3650360107421875 203.5159759521484375 203.5159759521484375 203.70281982421875 202.6671600341796875 202.6671600341796875 201.7464752197265625 201.5061492919921875
 197.8013916015625 197.8013916015625 197.5544281005859375 197.84173583984375 197.84173583984375 196.9280242919921875 196.4858245849609375 196.4858245849609375 196.326446533203125 196.18829345703125 196.18829345703125 196.217498779296875 196.275604248046875 196.275604248046875 196.312591552734375 195.79998779296875 195.79998779296875 195.62786865234375 196.19805908203125 196.19805908203125 197.1608734130859375 198.482208251953125 198.482208251953125 200.0123138427734375 201.4885406494140625 201.4885406494140625 202.112579345703125 201.7223052978515625 201.7223052978515625 201.65155029296875 201.2718048095703125 201.2718048095703125 200.7586669921875 200.3058929443359375 200.3058929443359375 201.3355712890625 203.5894622802734375 203.5894622802734375 204.540802001953125 204.55462646484375 204.55462646484375 204.667633056640625 204.9767913818359375 204.9767913818359375 205.3016815185546875 205.378387451171875 205.378387451171875 205.2960357666015625 206.0131988525390625 206.0131988525390625 206.2381591796875 206.4839935302734375 206.4839935302734375 206.2698822021484375 206.33953857421875 206.33953857421875 206.320648193359375 205.6613922119140625 205.6613922119140625 205.4151458740234375 205.2238922119140625 205.2238922119140625 205.501190185546875 205.8429107666015625 205.8429107666015625 205.4065704345703125 205.4530181884765625 205.4530181884765625 205.0805816650390625 205.1828765869140625 205.1828765869140625 205.7879180908203125 205.793060302734375 205.793060302734375 205.8432159423828125 206.0005645751953125 206.0005645751953125 206.03369140625 206.2847442626953125 206.2847442626953125 206.0927276611328125 205.6958465576171875 205.6958465576171875 205.4599609375 205.8528594970703125 205.8528594970703125 205.79107666015625 207.293304443359375 207.293304443359375 205.313446044921875 204.7256011962890625 204.7256011962890625 204.823577880859375 204.30706787109375 204.30706787109375 204.1913604736328125 203.7539825439453125 203.7539825439453125 202.5071563720703125 203.648773193359375 203.648773193359375 204.9480743408203125 203.54949951171875 203.54949951171875 202.9876556396484375 203.1982421875 203.1982421875 202.4059906005859375 201.56536865234375 201.56536865234375 201.0633697509765625 200.979248046875
 197.5697021484375 197.5697021484375 197.7227783203125 197.728057861328125 197.728057861328125 197.266387939453125 196.4963836669921875 196.4963836669921875 196.3186798095703125 196.5908203125 196.5908203125 196.224029541015625 196.178497314453125 196.178497314453125 196.1133575439453125 196.0756378173828125 196.0756378173828125 196.09161376953125 196.1034393310546875 196.1034393310546875 196.1442108154296875 196.6184539794921875 196.6184539794921875 198.3619537353515625 199.47271728515625 199.47271728515625 199.15557861328125 198.9281005859375 198.9281005859375 199.6721649169921875 199.899139404296875 199.899139404296875 200.1109161376953125 200.0374603271484375 200.0374603271484375 201.591766357421875 203.5503387451171875 203.5503387451171875 204.346038818359375 203.8469085693359375 203.8469085693359375 203.9133148193359375 204.165435791015625 204.165435791015625 204.17633056640625 204.729736328125 204.729736328125 205.09552001953125 205.7322235107421875 205.7322235107421875 205.8475799560546875 205.79254150390625 205.79254150390625 205.6794586181640625 205.757171630859375 205.757171630859375 205.565673828125 205.147796630859375 205.147796630859375 205.0933074951171875 204.8373565673828125 204.8373565673828125 205.1186370849609375 205.2172088623046875 205.2172088623046875 204.9603424072265625 204.5107574462890625 204.5107574462890625 204.2616729736328125 204.5410308837890625 204.5410308837890625 204.8817901611328125 205.1732177734375 205.1732177734375 205.075714111328125 205.1575469970703125 205.1575469970703125 205.261627197265625 205.3822174072265625 205.3822174072265625 205.1873779296875 205.1418304443359375 205.1418304443359375 204.906341552734375 204.8858795166015625 204.8858795166015625 204.6854095458984375 204.7125701904296875 204.7125701904296875 204.401123046875 204.1703948974609375 204.1703948974609375 204.20172119140625 203.9934234619140625 203.9934234619140625 204.2515869140625 202.8899078369140625 202.8899078369140625 202.5943145751953125 204.268463134765625 204.268463134765625 206.562347412109375 204.9903106689453125 204.9903106689453125 202.7695159912109375 202.362823486328125 202.362823486328125 202.207916259765625 201.19189453125 201.19189453125 201.02459716796875 201.102996826171875
 197.6442413330078125 197.6442413330078125 197.682373046875 197.381805419921875 197.381805419921875 197.6402435302734375 196.9458160400390625 196.9458160400390625 196.70428466796875 196.8321380615234375 196.8321380615234375 196.7654876708984375 196.3815155029296875 196.3815155029296875 196.1535491943359375 196.2524566650390625 196.2524566650390625 196.259857177734375 196.2450103759765625 196.2450103759765625 196.092437744140625 196.0963134765625 196.0963134765625 196.4398040771484375 196.9706878662109375 196.9706878662109375 196.863372802734375 196.9196624755859375 196.9196624755859375 197.25079345703125 198.1972198486328125 198.1972198486328125 199.0357208251953125 199.407745361328125 199.407745361328125 200.9132537841796875 202.4134979248046875 202.4134979248046875 203.1023101806640625 203.20623779296875 203.20623779296875 203.13714599609375 203.204833984375 203.204833984375 203.7559356689453125 204.0369415283203125 204.0369415283203125 204.5575408935546875 204.9620513916015625 204.9620513916015625 204.9282073974609375 205.2006683349609375 205.2006683349609375 205.119659423828125 205.2093963623046875 205.2093963623046875 204.92633056640625 204.3226470947265625 204.3226470947265625 204.906341552734375 204.6194305419921875 204.6194305419921875 204.8434906005859375 204.5770111083984375 204.5770111083984375 203.95794677734375 203.553680419921875 203.553680419921875 203.382843017578125 203.948394775390625 203.948394775390625 204.212127685546875 204.415771484375 204.415771484375 204.12982177734375 204.4798736572265625 204.4798736572265625 204.7921295166015625 204.748626708984375 204.748626708984375 204.68963623046875 204.728851318359375 204.728851318359375 204.4051055908203125 204.4474334716796875 204.4474334716796875 204.5596923828125 204.501922607421875 204.501922607421875 204.0167236328125 203.6601409912109375 203.6601409912109375 203.582794189453125 203.7222747802734375 203.7222747802734375 203.16009521484375 202.4997100830078125 202.4997100830078125 202.435394287109375 202.9009857177734375 202.9009857177734375 203.289886474609375 204.437225341796875 204.437225341796875 203.316619873046875 202.1621856689453125 202.1621856689453125 201.61163330078125 201.076873779296875 201.076873779296875 201.177032470703125 200.5
 197.81396484375 197.81396484375 197.3651580810546875 197.5308685302734375 197.5308685302734375 197.574371337890625 197.101776123046875 197.101776123046875 196.8427581787109375 196.866729736328125 196.866729736328125 196.7046051025390625 196.770660400390625 196.770660400390625 196.8521575927734375 196.5124359130859375 196.5124359130859375 196.3878173828125 196.377197265625 196.377197265625 196.322540283203125 196.194488525390625 196.194488525390625 196.121490478515625 196.34503173828125 196.34503173828125 197.25201416015625 197.5477752685546875 197.5477752685546875 197.5039520263671875 197.428497314453125 197.428497314453125 197.9207000732421875 198.5367431640625 198.5367431640625 199.162933349609375 200.1683349609375 200.1683349609375 200.9656524658203125 201.557403564453125 201.557403564453125 201.918487548828125 202.254058837890625 202.254058837890625 202.84454345703125 203.2116241455078125 203.2116241455078125 203.5135345458984375 203.9353179931640625 203.9353179931640625 203.96484375 204.5134124755859375 204.5134124755859375 204.4747772216796875 204.5223236083984375 204.5223236083984375 204.1542205810546875 203.7816162109375 203.7816162109375 204.1752777099609375 204.1109161376953125 204.1109161376953125 204.10784912109375 203.6104736328125 203.6104736328125 203.0976409912109375 202.496826171875 202.496826171875 202.529571533203125 203.0599517822265625 203.0599517822265625 203.47869873046875 203.4709625244140625 203.4709625244140625 203.4288787841796875 203.688751220703125 203.688751220703125 203.9757232666015625 204.080596923828125 204.080596923828125 204.14080810546875 204.303131103515625 204.303131103515625 203.98321533203125 204.02294921875 204.02294921875 204.22161865234375 203.7079010009765625 203.7079010009765625 203.1186370849609375 203.093902587890625 203.093902587890625 203.1765594482421875 203.40972900390625 203.40972900390625 202.5068359375 202.506988525390625 202.506988525390625 202.3284454345703125 202.4735107421875 202.4735107421875 202.3601837158203125 203.3115386962890625 203.3115386962890625 202.617156982421875 202.638275146484375 202.638275146484375 201.481414794921875 201.816558837890625 201.816558837890625 200.5 200.5
 197.5740509033203125 197.5740509033203125 197.757659912109375 197.329132080078125 197.329132080078125 197.087921142578125 197.20330810546875 197.20330810546875 197.1018524169921875 196.9946746826171875 196.9946746826171875 196.8725738525390625 197.1181640625 197.1181640625 196.7847900390625 196.6126251220703125 196.6126251220703125 196.7545166015625 196.636688232421875 196.636688232421875 196.452056884765625 196.253692626953125 196.253692626953125 196.2933349609375 196.5627593994140625 196.5627593994140625 197.1319427490234375 198.1812896728515625 198.1812896728515625 197.6898345947265625 197.83514404296875 197.83514404296875 197.883758544921875 198.000274658203125 198.000274658203125 198.337493896484375 198.7979583740234375 198.7979583740234375 199.7119140625 200.3968658447265625 200.3968658447265625 200.8412933349609375 201.33563232421875 201.33563232421875 201.465423583984375 202.30828857421875 202.30828857421875 202.632659912109375 203.0797119140625 203.0797119140625 203.0985870361328125 203.3307647705078125 203.3307647705078125 203.7061767578125 203.521728515625 203.521728515625 203.326019287109375 203.4696807861328125 203.4696807861328125 203.509246826171875 203.8242950439453125 203.8242950439453125 203.7982940673828125 203.0670013427734375 203.0670013427734375 202.611785888671875 202.097412109375 202.097412109375 201.82427978515625 202.1311187744140625 202.1311187744140625 202.190643310546875 202.385772705078125 202.385772705078125 202.3808135986328125 202.6313629150390625 202.6313629150390625 202.80157470703125 203.234466552734375 203.234466552734375 203.7344818115234375 203.5238189697265625 203.5238189697265625 203.342498779296875 203.0626678466796875 203.0626678466796875 202.749603271484375 202.750946044921875 202.750946044921875 202.462799072265625 202.4781951904296875 202.4781951904296875 202.68756103515625 202.50189208984375 202.50189208984375 202.193359375 202.5976715087890625 202.5976715087890625 202.8096771240234375 202.4709930419921875 202.4709930419921875 202.3928070068359375 202.4480133056640625 202.4480133056640625 201.577789306640625 201.5831451416015625 201.5831451416015625 202.40826416015625 200.5 200.5 200.5 200.5
 197.9106903076171875 197.9106903076171875 197.7468719482421875 197.654632568359375 197.654632568359375 197.5718536376953125 197.5816192626953125 197.5816192626953125 197.8748321533203125 197.3021087646484375 197.3021087646484375 196.7244720458984375 196.5992279052734375 196.5992279052734375 196.6763458251953125 196.769683837890625 196.769683837890625 196.4813079833984375 196.490142822265625 196.490142822265625 196.6492462158203125 196.630340576171875 196.630340576171875 196.5622711181640625 196.3546600341796875 196.3546600341796875 196.7796783447265625 197.4217529296875 197.4217529296875 197.5236663818359375 197.6305999755859375 197.6305999755859375 197.4842987060546875 197.9058074951171875 197.9058074951171875 198.6826019287109375 199.3932037353515625 199.3932037353515625 199.8892822265625 200.675628662109375 200.675628662109375 200.8749847412109375 201.125152587890625 201.125152587890625 201.029022216796875 201.5811309814453125 201.5811309814453125 202.0654296875 202.3018341064453125 202.3018341064453125 202.219268798828125 202.6361541748046875 202.6361541748046875 202.59912109375 202.17364501953125 202.17364501953125 202.2565155029296875 202.4993438720703125 202.4993438720703125 203.17364501953125 203.6038665771484375 203.6038665771484375 203.1439666748046875 202.427825927734375 202.427825927734375 202.0825042724609375 201.46661376953125 201.46661376953125 201.43780517578125 201.3983154296875 201.3983154296875 201.4891204833984375 201.7003326416015625 201.7003326416015625 201.6905059814453125 201.8689117431640625 201.8689117431640625 201.7689056396484375 202.461883544921875 202.461883544921875 202.8304901123046875 202.5837860107421875 202.5837860107421875 201.842376708984375 201.6193084716796875 201.6193084716796875 201.45770263671875 201.55963134765625 201.55963134765625 201.7027587890625 201.9667205810546875 201.9667205810546875 201.8741302490234375 201.97454833984375 201.97454833984375 202.198699951171875 202.407318115234375 202.407318115234375 202.4594879150390625 202.326995849609375 202.326995849609375 202.314422607421875 201.96234130859375 201.96234130859375 201.3626708984375 200.5069580078125 200.5069580078125 201.0585784912109375 204.288909912109375 204.288909912109375 200.5 200.5
 198.6833953857421875 198.6833953857421875 198.6485748291015625 198.3656005859375 198.3656005859375 198.0811920166015625 197.8860321044921875 197.8860321044921875 197.5800628662109375 197.310516357421875 197.310516357421875 197.5583343505859375 197.3262176513671875 197.3262176513671875 196.9316253662109375 196.8917388916015625 196.8917388916015625 196.43780517578125 196.166595458984375 196.166595458984375 196.7781982421875 196.8753814697265625 196.8753814697265625 196.57403564453125 196.4874725341796875 196.4874725341796875 196.6564483642578125 196.3741302490234375 196.3741302490234375 196.7108001708984375 197.2275390625 197.2275390625 198.049407958984375 198.7122802734375 198.7122802734375 199.3026885986328125 199.68878173828125 199.68878173828125 200.32733154296875 200.590972900390625 200.590972900390625 200.92120361328125 201.0002899169921875 201.0002899169921875 201.5216827392578125 201.3909149169921875 201.3909149169921875 201.2494659423828125 201.3959503173828125 201.3959503173828125 201.7805938720703125 201.726593017578125 201.726593017578125 201.495208740234375 201.186798095703125 201.186798095703125 201.4208221435546875 201.626251220703125 201.626251220703125 202.273773193359375 202.5954132080078125 202.5954132080078125 202.2522735595703125 201.6621246337890625 201.6621246337890625 201.702911376953125 201.228240966796875 201.228240966796875 200.9620819091796875 200.902191162109375 200.902191162109375 200.49566650390625 200.7558135986328125 200.7558135986328125 200.8360595703125 200.795989990234375 200.795989990234375 200.9210052490234375 201.2906646728515625 201.2906646728515625 201.6656646728515625 201.5498046875 201.5498046875 200.7871856689453125 200.717010498046875 200.717010498046875 201.012420654296875 201.0513763427734375 201.0513763427734375 201.1315155029296875 201.2444305419921875 201.2444305419921875 201.1206817626953125 201.6089935302734375 201.6089935302734375 201.9536895751953125 201.736724853515625 201.736724853515625 201.8912811279296875 201.8819580078125 201.8819580078125 201.8226165771484375 201.429962158203125 201.429962158203125 200.448394775390625 200.1237945556640625 200.1237945556640625 200.6043243408203125 201.51910400390625 201.51910400390625 203.101654052734375 202.099853515625
 199.3251190185546875 199.3251190185546875 199.407318115234375 199.4589385986328125 199.4589385986328125 198.8406829833984375 198.3636322021484375 198.3636322021484375 197.94268798828125 197.6465911865234375 197.6465911865234375 197.482635498046875 197.46612548828125 197.46612548828125 197.1349945068359375 196.8965911865234375 196.8965911865234375 196.6708221435546875 196.8512115478515625 196.8512115478515625 196.7917327880859375 196.4970550537109375 196.4970550537109375 196.543365478515625 196.6292266845703125 196.6292266845703125 196.6937713623046875 196.5557403564453125 196.5557403564453125 196.6013641357421875 197.4048614501953125 197.4048614501953125 198.4252777099609375 198.8385162353515625 198.8385162353515625 199.2552947998046875 199.270660400390625 199.270660400390625 199.9483795166015625 200.5497283935546875 200.5497283935546875 201.2495269775390625 201.4539337158203125 201.4539337158203125 201.9696502685546875 201.49542236328125 201.49542236328125 201.1213226318359375 201.109222412109375 201.109222412109375 201.526824951171875 201.238616943359375 201.238616943359375 200.891387939453125 200.69329833984375 200.69329833984375 200.7818603515625 200.901580810546875 200.901580810546875 201.5252532958984375 201.69464111328125 201.69464111328125 201.235015869140625 200.991485595703125 200.991485595703125 201.0145721435546875 200.518310546875 200.518310546875 200.40386962890625 200.332366943359375 200.332366943359375 200.3057098388671875 200.128326416015625 200.128326416015625 200.11907958984375 200.03607177734375 200.03607177734375 200.3279266357421875 200.3643646240234375 200.3643646240234375 200.809600830078125 201.185791015625 201.185791015625 200.496734619140625 200.21624755859375 200.21624755859375 200.5381011962890625 200.5762939453125 200.5762939453125 200.643218994140625 200.916107177734375 200.916107177734375 200.996734619140625 201.3891754150390625 201.3891754150390625 201.3012847900390625 201.2550811767578125 201.2550811767578125 201.1922454833984375 201.13397216796875 201.13397216796875 201.0267181396484375 200.3685302734375 200.3685302734375 200.1604156494140625 200.1480255126953125 200.1480255126953125 200.0084686279296875 201.04339599609375 201.04339599609375 202.618865966796875 204.1737518310546875
 199.904815673828125 199.904815673828125 199.7983245849609375 199.90020751953125 199.90020751953125 199.64837646484375 198.9541015625 198.9541015625 198.7487030029296875 198.568115234375 198.568115234375 197.8148040771484375 197.643402099609375 197.643402099609375 197.531219482421875 196.8051605224609375 196.8051605224609375 196.6688232421875 197.121612548828125 197.121612548828125 197.0752410888671875 196.3824920654296875 196.3824920654296875 196.442291259765625 196.708526611328125 196.708526611328125 196.4069671630859375 196.49395751953125 196.49395751953125 196.636322021484375 196.9151611328125 196.9151611328125 197.1340179443359375 197.8250732421875 197.8250732421875 198.0489654541015625 198.3677520751953125 198.3677520751953125 199.0211334228515625 199.7678375244140625 199.7678375244140625 200.4600372314453125 201.103118896484375 201.103118896484375 201.67852783203125 201.6764678955078125 201.6764678955078125 201.4533538818359375 201.2800750732421875 201.2800750732421875 201.6792755126953125 201.0592193603515625 201.0592193603515625 200.9072265625 200.532196044921875 200.532196044921875 200.5389251708984375 200.550384521484375 200.550384521484375 200.721771240234375 201.0234222412109375 201.0234222412109375 200.71636962890625 200.3065338134765625 200.3065338134765625 200.524444580078125 199.9980316162109375 199.9980316162109375 199.790740966796875 199.9900665283203125 199.9900665283203125 200.3028106689453125 199.5785369873046875 199.5785369873046875 199.5156097412109375 199.3165283203125 199.3165283203125 199.7138214111328125 200.0124969482421875 200.0124969482421875 200.23651123046875 200.57293701171875 200.57293701171875 200.159942626953125 199.869171142578125 199.869171142578125 199.8713531494140625 199.8775634765625 199.8775634765625 200.2261199951171875 200.4653167724609375 200.4653167724609375 200.74517822265625 200.875457763671875 200.875457763671875 200.73846435546875 200.6762237548828125 200.6762237548828125 200.262542724609375 200.2018585205078125 200.2018585205078125 200.1121826171875 199.50262451171875 199.50262451171875 199.6739044189453125 199.922698974609375 199.922698974609375 200.173553466796875 201.1321258544921875 201.1321258544921875 203.1872100830078125 205.5482635498046875
 200.762115478515625 200.762115478515625 200.7474365234375 200.626312255859375 200.626312255859375 200.224639892578125 199.7588043212890625 199.7588043212890625 199.52191162109375 199.5487213134765625 199.5487213134765625 198.7206573486328125 197.8813629150390625 197.8813629150390625 197.4928436279296875 197.4715118408203125 197.4715118408203125 197.141815185546875 196.8628387451171875 196.8628387451171875 197.1839752197265625 196.6971588134765625 196.6971588134765625 196.793212890625 196.5270233154296875 196.5270233154296875 196.9640960693359375 196.5632781982421875 196.5632781982421875 196.8071441650390625 196.524078369140625 196.524078369140625 196.5961761474609375 196.708648681640625 196.708648681640625 196.856781005859375 197.2627105712890625 197.2627105712890625 197.896942138671875 198.2190399169921875 198.2190399169921875 198.6981201171875 199.358489990234375 199.358489990234375 199.8643035888671875 200.1413726806640625 200.1413726806640625 200.310516357421875 200.355255126953125 200.355255126953125 200.589935302734375 200.7150115966796875 200.7150115966796875 200.4205169677734375 200.2652435302734375 200.2652435302734375 200.4726715087890625 200.29962158203125 200.29962158203125 200.626739501953125 200.5321502685546875 200.5321502685546875 200.172698974609375 199.677215576171875 199.677215576171875 199.6898956298828125 199.589080810546875 199.589080810546875 199.5378875732421875 199.5536651611328125 199.5536651611328125 200.0244140625 199.5211334228515625 199.5211334228515625 199.209686279296875 199.0724334716796875 199.0724334716796875 199.39599609375 199.366607666015625 199.366607666015625 199.5254058837890625 199.91033935546875 199.91033935546875 199.6491241455078125 199.701446533203125 199.701446533203125 200.1121673583984375 200.0374908447265625 200.0374908447265625 200.294189453125 200.58551025390625 200.58551025390625 200.172210693359375 200.0460052490234375 200.0460052490234375 199.9266204833984375 199.6920166015625 199.6920166015625 199.9981842041015625 199.8861083984375 199.8861083984375 199.81951904296875 199.3443145751953125 199.3443145751953125 199.740325927734375 199.7426300048828125 199.7426300048828125 200.7672882080078125 201.459625244140625 201.459625244140625 202.40338134765625 205.6355438232421875
 201.4975738525390625 201.4975738525390625 201.798797607421875 201.4769439697265625 201.4769439697265625 201.073822021484375 200.664031982421875 200.664031982421875 200.4673309326171875 200.142425537109375 200.142425537109375 199.1104888916015625 198.2693939208984375 198.2693939208984375 197.6628570556640625 197.6824951171875 197.6824951171875 197.1455535888671875 197.0324859619140625 197.0324859619140625 196.976470947265625 196.9874725341796875 196.9874725341796875 196.9647064208984375 196.9932861328125 196.9932861328125 196.8209075927734375 196.579193115234375 196.579193115234375 196.7406158447265625 196.2386016845703125 196.2386016845703125 196.761505126953125 196.7877044677734375 196.7877044677734375 196.623016357421875 196.802642822265625 196.802642822265625 197.0439453125 197.0502777099609375 197.0502777099609375 196.9520111083984375 197.2811279296875 197.2811279296875 197.9611968994140625 198.3422088623046875 198.3422088623046875 198.5426788330078125 198.6690521240234375 198.6690521240234375 199.1539154052734375 198.988800048828125 198.988800048828125 198.631195068359375 198.9211273193359375 198.9211273193359375 199.301666259765625 199.3520050048828125 199.3520050048828125 199.8444061279296875 199.949371337890625 199.949371337890625 199.574676513671875 199.4822998046875 199.4822998046875 199.3634490966796875 199.412689208984375 199.412689208984375 199.5702362060546875 199.63116455078125 199.63116455078125 199.4969940185546875 199.57080078125 199.57080078125 199.2796630859375 199.1177215576171875 199.1177215576171875 199.5045928955078125 199.609039306640625 199.609039306640625 199.71820068359375 199.7527313232421875 199.7527313232421875 199.4965972900390625 199.72265625 199.72265625 199.7813720703125 199.8851165771484375 199.8851165771484375 200.01904296875 200.1455535888671875 200.1455535888671875 199.7273406982421875 199.520904541015625 199.520904541015625 199.69842529296875 199.5735015869140625 199.5735015869140625 199.7196197509765625 199.81976318359375 199.81976318359375 199.5565948486328125 199.655670166015625 199.655670166015625 199.782562255859375 200.0514373779296875 200.0514373779296875 201.125 202.5753631591796875 202.5753631591796875 201.433685302734375 202.8887481689453125
 202.3154144287109375 202.3154144287109375 202.3964080810546875 201.9434051513671875 201.9434051513671875 201.5530242919921875 201.438385009765625 201.438385009765625 201.0139923095703125 200.48919677734375 200.48919677734375 199.3318939208984375 198.69268798828125 198.69268798828125 197.824249267578125 198.1191864013671875 198.1191864013671875 197.665283203125 197.2777557373046875 197.2777557373046875 196.99761962890625 196.9795989990234375 196.9795989990234375 197.1045379638671875 196.9984130859375 196.9984130859375 196.7806243896484375 196.851318359375 196.851318359375 196.5936126708984375 196.6535186767578125 196.6535186767578125 196.7443695068359375 197.44091796875 197.44091796875 196.715484619140625 196.884490966796875 196.884490966796875 197.187225341796875 196.8907928466796875 196.8907928466796875 196.7183074951171875 196.956756591796875 196.956756591796875 197.02056884765625 197.09051513671875 197.09051513671875 197.0319061279296875 197.327850341796875 197.327850341796875 197.0264434814453125 196.9583892822265625 196.9583892822265625 197.0437774658203125 197.003692626953125 197.003692626953125 197.4874725341796875 197.637603759765625 197.637603759765625 198.2261199951171875 198.343963623046875 198.343963623046875 198.61273193359375 198.4478607177734375 198.4478607177734375 198.6992950439453125 198.6736297607421875 198.6736297607421875 198.78887939453125 198.9310760498046875 198.9310760498046875 198.9116973876953125 198.963775634765625 198.963775634765625 199.0700836181640625 199.0819549560546875 199.0819549560546875 199.311767578125 199.77557373046875 199.77557373046875 199.9573516845703125 199.7863922119140625 199.7863922119140625 199.5747833251953125 199.6536407470703125 199.6536407470703125 199.8867950439453125 199.4521942138671875 199.4521942138671875 199.602783203125 199.670318603515625 199.670318603515625 199.408599853515625 199.3288116455078125 199.3288116455078125 199.3923492431640625 199.747894287109375 199.747894287109375 199.3284454345703125 199.915435791015625 199.915435791015625 199.46441650390625 199.3082122802734375 199.3082122802734375 199.5580596923828125 199.9279327392578125 199.9279327392578125 201.61383056640625 201.9024200439453125 201.9024200439453125 201.552093505859375 202.2886810302734375
 203.040008544921875 203.040008544921875 203.39227294921875 203.1296539306640625 203.1296539306640625 202.6023712158203125 202.329864501953125 202.329864501953125 201.4717254638671875 200.7557525634765625 200.7557525634765625 199.73443603515625 199.04168701171875 199.04168701171875 197.9941558837890625 198.0475311279296875 198.0475311279296875 197.6635894775390625 197.633544921875 197.633544921875 197.3988494873046875 197.4215087890625 197.4215087890625 197.16119384765625 196.9182891845703125 196.9182891845703125 196.8528594970703125 197.1144561767578125 197.1144561767578125 196.9278106689453125 196.5681304931640625 196.5681304931640625 196.99871826171875 196.8944244384765625 196.8944244384765625 197.319976806640625 197.026947021484375 197.026947021484375 196.892974853515625 196.725860595703125 196.725860595703125 197.317138671875 196.689300537109375 196.689300537109375 196.9744415283203125 196.739349365234375 196.739349365234375 196.699188232421875 197.11151123046875 197.11151123046875 197.0059356689453125 196.6450347900390625 196.6450347900390625 197.098541259765625 196.858795166015625 196.858795166015625 196.796417236328125 197.0776824951171875 197.0776824951171875 196.9344024658203125 196.6345367431640625 196.6345367431640625 197.17510986328125 197.3340301513671875 197.3340301513671875 197.480224609375 197.6202545166015625 197.6202545166015625 197.9183502197265625 198.015106201171875 198.015106201171875 198.0381011962890625 198.512451171875 198.512451171875 198.3563385009765625 198.8011322021484375 198.8011322021484375 198.9786224365234375 199.196197509765625 199.196197509765625 199.495330810546875 199.516693115234375 199.516693115234375 199.4649505615234375 199.48895263671875 199.48895263671875 199.7366485595703125 199.4007720947265625 199.4007720947265625 199.3245697021484375 199.4650726318359375 199.4650726318359375 199.457061767578125 199.2438201904296875 199.2438201904296875 199.082122802734375 199.4106597900390625 199.4106597900390625 199.542510986328125 199.4413604736328125 199.4413604736328125 199.43231201171875 199.23565673828125 199.23565673828125 199.59259033203125 200.1087799072265625 200.1087799072265625 201.215728759765625 201.273590087890625 201.273590087890625 201.879119873046875 203.050445556640625
 203.4696807861328125 203.4696807861328125 204.0563201904296875 203.6393280029296875 203.6393280029296875 202.8953704833984375 202.566314697265625 202.566314697265625 201.7445831298828125 201.132171630859375 201.132171630859375 200.3979034423828125 199.2693328857421875 199.2693328857421875 198.416290283203125 198.43890380859375 198.43890380859375 197.706634521484375 197.74371337890625 197.74371337890625 197.70465087890625 197.7277679443359375 197.7277679443359375 197.25189208984375 197.0742340087890625 197.0742340087890625 197.10479736328125 196.7886505126953125 196.7886505126953125 196.6447296142578125 196.7379608154296875 196.7379608154296875 196.589752197265625 196.6340179443359375 196.6340179443359375 196.826995849609375 197.05902099609375 197.05902099609375 197.110198974609375 196.7111358642578125 196.7111358642578125 196.928619384765625 196.7258148193359375 196.7258148193359375 196.692138671875 196.6494903564453125 196.6494903564453125 196.671051025390625 196.758880615234375 196.758880615234375 196.8945465087890625 196.7359161376953125 196.7359161376953125 197.0440216064453125 196.8045806884765625 196.8045806884765625 197.010650634765625 197.10406494140625 197.10406494140625 196.7138214111328125 196.827667236328125 196.827667236328125 197.139678955078125 197.0120697021484375 197.0120697021484375 196.95416259765625 197.23321533203125 197.23321533203125 197.7795867919921875 197.490020751953125 197.490020751953125 197.3116607666015625 197.794921875 197.794921875 197.709259033203125 197.8537445068359375 197.8537445068359375 198.2218017578125 198.082427978515625 198.082427978515625 198.7303314208984375 198.7926177978515625 198.7926177978515625 198.706451416015625 198.9497833251953125 198.9497833251953125 198.89471435546875 198.7773590087890625 198.7773590087890625 199.227813720703125 198.8426666259765625 198.8426666259765625 199.005584716796875 198.942626953125 198.942626953125 199.1776123046875 198.99151611328125 198.99151611328125 199.6298828125 199.0518646240234375 199.0518646240234375 199.182373046875 199.3625946044921875 199.3625946044921875 199.9837493896484375 200.2005157470703125 200.2005157470703125 202.30169677734375 202.1846160888671875 202.1846160888671875 202.7976531982421875 203.6574859619140625
 203.5670623779296875 203.5670623779296875 204.100067138671875 203.635894775390625 203.635894775390625 203.0811614990234375 202.5196075439453125 202.5196075439453125 202.0465240478515625 201.562255859375 201.562255859375 200.9574737548828125 199.844970703125 199.844970703125 199.093597412109375 198.90625 198.90625 198.004669189453125 198.064727783203125 198.064727783203125 197.4235382080078125 197.635589599609375 197.635589599609375 197.3855438232421875 197.4794464111328125 197.4794464111328125 197.721466064453125 197.3316497802734375 197.3316497802734375 197.12750244140625 196.8630828857421875 196.8630828857421875 196.7333221435546875 197.096771240234375 197.096771240234375 196.5354156494140625 196.9484100341796875 196.9484100341796875 197.9890899658203125 198.0726776123046875 198.0726776123046875 197.5883941650390625 196.83154296875 196.83154296875 196.63623046875 196.4087677001953125 196.4087677001953125 196.597686767578125 196.8571319580078125 196.8571319580078125 196.641143798828125 196.6551055908203125 196.6551055908203125 196.6277008056640625 196.625701904296875 196.625701904296875 196.821319580078125 196.701751708984375 196.701751708984375 196.77069091796875 196.8932342529296875 196.8932342529296875 196.8281707763671875 197.0181732177734375 197.0181732177734375 196.8762664794921875 196.875274658203125 196.875274658203125 197.223785400390625 197.1676025390625 197.1676025390625 197.1597137451171875 197.7892303466796875 197.7892303466796875 197.4758758544921875 197.485595703125 197.485595703125 197.80010986328125 197.8845672607421875 197.8845672607421875 197.900146484375 198.2389678955078125 198.2389678955078125 198.32537841796875 198.344757080078125 198.344757080078125 198.096343994140625 198.3418731689453125 198.3418731689453125 198.983978271484375 198.936187744140625 198.936187744140625 198.9019012451171875 198.872344970703125 198.872344970703125 199.314788818359375 199.2717742919921875 199.2717742919921875 199.45050048828125 199.522247314453125 199.522247314453125 199.7241668701171875 199.93206787109375 199.93206787109375 200.1537933349609375 200.3330230712890625 200.3330230712890625 201.59918212890625 201.9003753662109375 201.9003753662109375 202.7274017333984375 203.3811492919921875
 203.1554107666015625 203.1554107666015625 203.7337188720703125 203.820831298828125 203.820831298828125 203.4689483642578125 203.063385009765625 203.063385009765625 202.6119537353515625 202.0425567626953125 202.0425567626953125 200.904449462890625 199.967010498046875 199.967010498046875 199.513153076171875 199.1832733154296875 199.1832733154296875 198.4820556640625 198.0960693359375 198.0960693359375 197.879608154296875 197.6589508056640625 197.6589508056640625 197.7823638916015625 197.7580718994140625 197.7580718994140625 197.828094482421875 198.014739990234375 198.014739990234375 197.9031219482421875 197.7214202880859375 197.7214202880859375 197.1363983154296875 198.11029052734375 198.11029052734375 197.2659149169921875 196.9081573486328125 196.9081573486328125 196.819488525390625 196.9649658203125 196.9649658203125 196.56939697265625 196.683685302734375 196.683685302734375 196.82025146484375 196.4535064697265625 196.4535064697265625 196.442840576171875 196.6057586669921875 196.6057586669921875 196.5823516845703125 196.6772308349609375 196.6772308349609375 196.7659912109375 196.564605712890625 196.564605712890625 196.6143341064453125 196.78631591796875 196.78631591796875 196.6895599365234375 196.727752685546875 196.727752685546875 197.0423126220703125 196.89019775390625 196.89019775390625 196.947723388671875 196.733428955078125 196.733428955078125 197.116607666015625 197.31451416015625 197.31451416015625 197.12945556640625 197.320892333984375 197.320892333984375 197.5973968505859375 197.884552001953125 197.884552001953125 197.7172393798828125 197.925750732421875 197.925750732421875 197.69085693359375 197.93145751953125 197.93145751953125 198.221435546875 198.092437744140625 198.092437744140625 198.1628570556640625 198.6880950927734375 198.6880950927734375 198.563507080078125 199.0843353271484375 199.0843353271484375 198.8657684326171875 198.816162109375 198.816162109375 198.993682861328125 199.1399993896484375 199.1399993896484375 199.256500244140625 199.583221435546875 199.583221435546875 199.519256591796875 199.7413482666015625 199.7413482666015625 199.7955322265625 200.1940765380859375 200.1940765380859375 201.435089111328125 201.375579833984375 201.375579833984375 201.9858856201171875 202.5613861083984375
 202.043975830078125 202.043975830078125 203.032012939453125 203.2517547607421875 203.2517547607421875 202.8968963623046875 203.257537841796875 203.257537841796875 202.6964874267578125 201.8539581298828125 201.8539581298828125 201.086578369140625 200.10894775390625 200.10894775390625 199.999053955078125 199.609771728515625 199.609771728515625 198.90606689453125 198.4339752197265625 198.4339752197265625 197.9018707275390625 197.7760772705078125 197.7760772705078125 198.113433837890625 197.5306549072265625 197.5306549072265625 197.890716552734375 197.603546142578125 197.603546142578125 197.502899169921875 197.746734619140625 197.746734619140625 197.8838653564453125 198.6389923095703125 198.6389923095703125 198.9232025146484375 197.9112548828125 197.9112548828125 196.849700927734375 196.854827880859375 196.854827880859375 196.5648040771484375 196.6296234130859375 196.6296234130859375 196.6711578369140625 196.6841278076171875 196.6841278076171875 196.386810302734375 196.472564697265625 196.472564697265625 196.4122467041015625 196.538818359375 196.538818359375 196.505828857421875 196.4034576416015625 196.4034576416015625 196.525726318359375 196.760467529296875 196.760467529296875 196.725555419921875 196.74908447265625 196.74908447265625 196.97100830078125 196.8710784912109375 196.8710784912109375 196.5884552001953125 197.0169677734375 197.0169677734375 196.770172119140625 196.865447998046875 196.865447998046875 197.03717041015625 197.224029541015625 197.224029541015625 197.1038970947265625 197.592437744140625 197.592437744140625 197.4353485107421875 197.671844482421875 197.671844482421875 197.4309539794921875 198.3063812255859375 198.3063812255859375 197.844696044921875 197.75506591796875 197.75506591796875 197.9533843994140625 198.3797760009765625 198.3797760009765625 198.25262451171875 198.796539306640625 198.796539306640625 198.4962615966796875 198.7206268310546875 198.7206268310546875 198.9746551513671875 199.2713165283203125 199.2713165283203125 199.3774261474609375 199.6485137939453125 199.6485137939453125 199.2092437744140625 199.491180419921875 199.491180419921875 199.5352783203125 199.823211669921875 199.823211669921875 200.6331024169921875 200.7465057373046875 200.7465057373046875 200.9694976806640625 201.132415771484375
 200.999420166015625 200.999420166015625 201.83087158203125 201.887054443359375 201.887054443359375 202.127899169921875 202.4880218505859375 202.4880218505859375 202.3125 201.66168212890625 201.66168212890625 200.822662353515625 200.3845062255859375 200.3845062255859375 199.9861907958984375 199.408172607421875 199.408172607421875 199.1720733642578125 198.428497314453125 198.428497314453125 198.2962188720703125 198.0506439208984375 198.0506439208984375 197.970428466796875 197.6203460693359375 197.6203460693359375 197.8907012939453125 197.8839569091796875 197.8839569091796875 197.72052001953125 197.7278594970703125 197.7278594970703125 197.5233154296875 198.355010986328125 198.355010986328125 197.696380615234375 197.8420867919921875 197.8420867919921875 198.5276031494140625 196.82666015625 196.82666015625 196.769683837890625 196.6605224609375 196.6605224609375 196.6057586669921875 196.4898834228515625 196.4898834228515625 196.6414794921875 196.5240478515625 196.5240478515625 196.538787841796875 196.67236328125 196.67236328125 196.6852569580078125 196.733978271484375 196.733978271484375 196.7874603271484375 196.9742431640625 196.9742431640625 196.63934326171875 196.7234344482421875 196.7234344482421875 196.7810821533203125 196.6404266357421875 196.6404266357421875 196.649688720703125 197.0377960205078125 197.0377960205078125 196.7559356689453125 196.947296142578125 196.947296142578125 197.0196685791015625 197.1308746337890625 197.1308746337890625 197.0950164794921875 197.383087158203125 197.383087158203125 197.2399749755859375 198.045135498046875 198.045135498046875 197.803863525390625 197.9031524658203125 197.9031524658203125 197.590057373046875 197.977264404296875 197.977264404296875 198.2523345947265625 198.057861328125 198.057861328125 198.0747833251953125 198.329010009765625 198.329010009765625 198.535919189453125 198.783203125 198.783203125 198.927215576171875 199.3973388671875 199.3973388671875 199.41064453125 199.6019134521484375 199.6019134521484375 199.3991851806640625 199.3815460205078125 199.3815460205078125 199.705535888671875 199.6191864013671875 199.6191864013671875 199.806976318359375 199.813323974609375 199.813323974609375 199.862640380859375 199.9200439453125
 199.936737060546875 199.936737060546875 200.9686126708984375 201.4212493896484375 201.4212493896484375 201.3237457275390625 201.4079437255859375 201.4079437255859375 201.262298583984375 200.887725830078125 200.887725830078125 200.459991455078125 200.0218353271484375 200.0218353271484375 199.2467041015625 199.36279296875 199.36279296875 198.9208221435546875 198.3305511474609375 198.3305511474609375 198.4075927734375 198.0671234130859375 198.0671234130859375 197.7106781005859375 197.8328399658203125 197.8328399658203125 197.313140869140625 197.787139892578125 197.787139892578125 197.6400909423828125 197.5408935546875 197.5408935546875 197.5889892578125 197.8852996826171875 197.8852996826171875 197.6444244384765625 198.402587890625 198.402587890625 198.290374755859375 198.0961761474609375 198.0961761474609375 197.2789764404296875 196.7770233154296875 196.7770233154296875 196.615478515625 196.694732666015625 196.694732666015625 196.6372222900390625 196.4753875732421875 196.4753875732421875 196.4709320068359375 196.6486358642578125 196.6486358642578125 196.6710052490234375 196.8102569580078125 196.8102569580078125 196.744537353515625 196.636993408203125 196.636993408203125 196.6757965087890625 196.8048095703125 196.8048095703125 196.6744384765625 196.935302734375 196.935302734375 196.587921142578125 197.1000213623046875 197.1000213623046875 196.9118499755859375 197.0044097900390625 197.0044097900390625 196.730621337890625 196.7687225341796875 196.7687225341796875 197.118927001953125 196.9201202392578125 196.9201202392578125 197.7417144775390625 199.478271484375 199.478271484375 198.917510986328125 197.828582763671875 197.828582763671875 197.74615478515625 197.70477294921875 197.70477294921875 198.126556396484375 198.3585968017578125 198.3585968017578125 198.0141448974609375 198.074859619140625 198.074859619140625 198.3600616455078125 198.6630706787109375 198.6630706787109375 199.089202880859375 199.2710723876953125 199.2710723876953125 199.53192138671875 199.7195281982421875 199.7195281982421875 199.60601806640625 199.210113525390625 199.210113525390625 199.105499267578125 199.1259918212890625 199.1259918212890625 199.4241790771484375 199.4561004638671875 199.4561004638671875 199.7016143798828125 199.73779296875
 199.819793701171875 199.819793701171875 200.421173095703125 200.56439208984375 200.56439208984375 200.80535888671875 200.9512939453125 200.9512939453125 200.367706298828125 200.2566986083984375 200.2566986083984375 199.7370452880859375 199.6405487060546875 199.6405487060546875 199.5655364990234375 199.374298095703125 199.374298095703125 198.6219024658203125 198.466552734375 198.466552734375 198.31756591796875 198.4158477783203125 198.4158477783203125 197.813995361328125 197.815216064453125 197.815216064453125 197.6027069091796875 197.5739898681640625 197.5739898681640625 197.831390380859375 197.5787811279296875 197.5787811279296875 197.7347412109375 197.4674835205078125 197.4674835205078125 197.588836669921875 198.1220245361328125 198.1220245361328125 198.492950439453125 197.52886962890625 197.52886962890625 197.04730224609375 197.0714569091796875 197.0714569091796875 196.8701324462890625 196.8692169189453125 196.8692169189453125 196.779632568359375 196.4896697998046875 196.4896697998046875 196.58538818359375 196.6610107421875 196.6610107421875 196.5223236083984375 196.662322998046875 196.662322998046875 196.633941650390625 196.3529205322265625 196.3529205322265625 196.524261474609375 196.709259033203125 196.709259033203125 196.51812744140625 196.770965576171875 196.770965576171875 196.6386260986328125 196.8483734130859375 196.8483734130859375 196.7192230224609375 197.0617218017578125 197.0617218017578125 196.86859130859375 196.730712890625 196.730712890625 197.0969696044921875 197.1788330078125 197.1788330078125 198.3689117431640625 198.827056884765625 198.827056884765625 199.1920623779296875 198.613494873046875 198.613494873046875 197.986846923828125 197.6012115478515625 197.6012115478515625 197.60736083984375 198.1092529296875 198.1092529296875 198.31280517578125 198.1873779296875 198.1873779296875 198.151458740234375 197.955413818359375 197.955413818359375 198.41436767578125 199.0172271728515625 199.0172271728515625 199.2685394287109375 198.9647979736328125 198.9647979736328125 199.2653045654296875 199.1827850341796875 199.1827850341796875 199.024322509765625 199.4361419677734375 199.4361419677734375 199.7337646484375 199.718597412109375 199.718597412109375 199.8415374755859375 199.800323486328125
 200.1228485107421875 200.1228485107421875 201.152008056640625 200.3367919921875 200.3367919921875 200.5493011474609375 200.241912841796875 200.241912841796875 200.0758056640625 199.8339080810546875 199.8339080810546875 199.811676025390625 199.6026611328125 199.6026611328125 199.5389251708984375 199.5487823486328125 199.5487823486328125 199.2362518310546875 199.1822357177734375 199.1822357177734375 198.577545166015625 198.899566650390625 198.899566650390625 198.4885101318359375 198.036865234375 198.036865234375 197.9326019287109375 197.91204833984375 197.91204833984375 198.0355224609375 198.0043182373046875 198.0043182373046875 198.1549835205078125 197.8426666259765625 197.8426666259765625 197.9767608642578125 197.9493408203125 197.9493408203125 198.033966064453125 197.4987945556640625 197.4987945556640625 197.553070068359375 197.4188079833984375 197.4188079833984375 197.9986114501953125 197.1441802978515625 197.1441802978515625 197.015472412109375 196.6938018798828125 196.6938018798828125 196.618865966796875 196.567779541015625 196.567779541015625 196.499542236328125 196.527557373046875 196.527557373046875 196.486602783203125 196.5867919921875 196.5867919921875 196.6494598388671875 196.5712890625 196.5712890625 196.7775421142578125 196.819793701171875 196.819793701171875 196.5846710205078125 196.6783905029296875 196.6783905029296875 196.5211029052734375 196.8884124755859375 196.8884124755859375 197.0745697021484375 197.1620330810546875 197.1620330810546875 197.1086273193359375 197.3996734619140625 197.3996734619140625 198.2086944580078125 198.8941497802734375 198.8941497802734375 198.7895050048828125 198.9164581298828125 198.9164581298828125 198.579437255859375 197.6302337646484375 197.6302337646484375 197.74017333984375 198.2825164794921875 198.2825164794921875 198.3188323974609375 198.233612060546875 198.233612060546875 198.1243896484375 197.9387664794921875 197.9387664794921875 197.97222900390625 198.774993896484375 198.774993896484375 198.642852783203125 199.249237060546875 199.249237060546875 199.389892578125 198.95831298828125 198.95831298828125 199.0449371337890625 199.1491241455078125 199.1491241455078125 199.5039825439453125 199.992340087890625 199.992340087890625 199.592315673828125 199.5193939208984375
 199.4454498291015625 199.4454498291015625 200.0714874267578125 200.3521270751953125 200.3521270751953125 200.6966400146484375 200.0297393798828125 200.0297393798828125 199.8150787353515625 199.6149139404296875 199.6149139404296875 199.9810638427734375 199.8780975341796875 199.8780975341796875 200.1013946533203125 199.9449005126953125 199.9449005126953125 199.761383056640625 199.840240478515625 199.840240478515625 199.447235107421875 199.528167724609375 199.528167724609375 199.4780120849609375 198.613067626953125 198.613067626953125 198.53076171875 197.9806060791015625 197.9806060791015625 198.2209930419921875 198.098785400390625 198.098785400390625 197.93426513671875 197.8803253173828125 197.8803253173828125 197.9884033203125 197.616363525390625 197.616363525390625 197.7787628173828125 197.8261260986328125 197.8261260986328125 197.3584747314453125 197.271636962890625 197.271636962890625 197.873809814453125 198.1424102783203125 198.1424102783203125 196.975128173828125 196.9117584228515625 196.9117584228515625 197.00909423828125 196.779876708984375 196.779876708984375 196.94915771484375 196.709320068359375 196.709320068359375 196.470794677734375 196.60833740234375 196.60833740234375 196.8990936279296875 196.493896484375 196.493896484375 196.4827728271484375 196.644561767578125 196.644561767578125 196.611907958984375 196.8590545654296875 196.8590545654296875 196.9541473388671875 196.7932281494140625 196.7932281494140625 196.7691192626953125 196.89373779296875 196.89373779296875 197.1442108154296875 196.93988037109375 196.93988037109375 196.5 196.5 196.5 196.5 197.604583740234375 197.604583740234375 197.6380157470703125 197.6363372802734375 197.6363372802734375 197.2826385498046875 197.9787139892578125 197.9787139892578125 198.0576171875 197.832855224609375 197.832855224609375 198.131683349609375 198.4017333984375 198.4017333984375 198.14215087890625 198.372772216796875 198.372772216796875 198.6430816650390625 199.0813751220703125 199.0813751220703125 198.998779296875 198.93804931640625 198.93804931640625 199.4885711669921875 199.4011383056640625 199.4011383056640625 199.6257476806640625 199.8221282958984375 199.8221282958984375 199.7418060302734375 199.1393280029296875
 198.9699859619140625 198.9699859619140625 199.162994384765625 199.9215545654296875 199.9215545654296875 200.170562744140625 199.633514404296875 199.633514404296875 199.791961669921875 200.06024169921875 200.06024169921875 200.1656951904296875 200.063507080078125 200.063507080078125 200.1070098876953125 199.821258544921875 199.821258544921875 200.1170806884765625 200.2458953857421875 200.2458953857421875 200.05517578125 200.14019775390625 200.14019775390625 199.8696136474609375 199.40899658203125 199.40899658203125 198.9792022705078125 199.02667236328125 199.02667236328125 199.084197998046875 198.2781219482421875 198.2781219482421875 197.750701904296875 197.51123046875 197.51123046875 197.881866455078125 197.29315185546875 197.29315185546875 197.8982086181640625 197.60955810546875 197.60955810546875 197.4313507080078125 197.4421844482421875 197.4421844482421875 197.9495849609375 198.0926361083984375 198.0926361083984375 197.5695953369140625 197.1042938232421875 197.1042938232421875 197.2542877197265625 197.2317657470703125 197.2317657470703125 197.14276123046875 196.8461456298828125 196.8461456298828125 196.7657012939453125 196.9977569580078125 196.9977569580078125 196.85687255859375 196.4774627685546875 196.4774627685546875 196.381988525390625 196.6070556640625 196.6070556640625 196.576904296875 196.723236083984375 196.723236083984375 196.895416259765625 196.8251495361328125 196.8251495361328125 196.9722137451171875 196.770904541015625 196.770904541015625 197.0162811279296875 196.5 196.5 196.5 196.5 196.5 196.5 197.6732025146484375 197.6732025146484375 197.6382293701171875 197.744110107421875 197.744110107421875 197.744873046875 197.664215087890625 197.664215087890625 197.9263916015625 197.682769775390625 197.682769775390625 197.7232818603515625 198.28411865234375 198.28411865234375 197.949127197265625 197.7618408203125 197.7618408203125 198.23480224609375 198.5990142822265625 198.5990142822265625 198.691162109375 198.728912353515625 198.728912353515625 199.046478271484375 198.9709014892578125 198.9709014892578125 199.197296142578125 199.379791259765625 199.379791259765625 199.1015167236328125 199.436859130859375
 198.7061309814453125 198.7061309814453125 198.8049774169921875 199.6986083984375 199.6986083984375 199.930511474609375 200.3343505859375 200.3343505859375 200.008331298828125 200.287261962890625 200.287261962890625 200.66619873046875 200.182403564453125 200.182403564453125 200.1507720947265625 200.300811767578125 200.300811767578125 200.294158935546875 200.728546142578125 200.728546142578125 200.7370452880859375 200.5855712890625 200.5855712890625 200.367401123046875 199.936767578125 199.936767578125 199.8223419189453125 199.66729736328125 199.66729736328125 199.26336669921875 198.59423828125 198.59423828125 198.1323089599609375 198.00433349609375 198.00433349609375 198.0105133056640625 197.8127288818359375 197.8127288818359375 197.9720306396484375 197.8359375 197.8359375 197.8935089111328125 198.460479736328125 198.460479736328125 197.9534912109375 197.8792572021484375 197.8792572021484375 197.68505859375 197.5576324462890625 197.5576324462890625 197.5364532470703125 197.276214599609375 197.276214599609375 197.1080322265625 197.3320159912109375 197.3320159912109375 197.2340240478515625 196.8681488037109375 196.8681488037109375 197.05230712890625 196.896026611328125 196.896026611328125 196.8420562744140625 197.0141754150390625 197.0141754150390625 196.891204833984375 197.15447998046875 197.15447998046875 196.71234130859375 196.933746337890625 196.933746337890625 197.3253936767578125 196.7005615234375 196.7005615234375 197.2869873046875 196.5 196.5 196.5 196.5 196.5 196.5 197.9848785400390625 197.9848785400390625 198.1828765869140625 197.5207672119140625 197.5207672119140625 197.518890380859375 197.6915283203125 197.6915283203125 197.7220916748046875 197.7054595947265625 197.7054595947265625 197.62274169921875 197.8504638671875 197.8504638671875 197.6544189453125 198.1689910888671875 198.1689910888671875 197.9473114013671875 198.0872955322265625 198.0872955322265625 198.1047210693359375 198.96270751953125 198.96270751953125 198.806396484375 199.108001708984375 199.108001708984375 199.484466552734375 199.492156982421875 199.492156982421875 199.3372650146484375 199.5905303955078125
 199.02630615234375 199.02630615234375 199.7288818359375 201.6023712158203125 201.6023712158203125 200.7083740234375 200.0763397216796875 200.0763397216796875 200.2812957763671875 200.7173309326171875 200.7173309326171875 200.9810028076171875 200.4678802490234375 200.4678802490234375 200.334320068359375 200.5797882080078125 200.5797882080078125 200.83746337890625 201.0622711181640625 201.0622711181640625 201.3384552001953125 201.13433837890625 201.13433837890625 200.94482421875 200.8259735107421875 200.8259735107421875 200.3608245849609375 200.268035888671875 200.268035888671875 199.6089630126953125 198.684173583984375 198.684173583984375 198.5909881591796875 197.8513336181640625 197.8513336181640625 198.06158447265625 197.6685943603515625 197.6685943603515625 197.58929443359375 198.0455780029296875 198.0455780029296875 197.9720916748046875 198.083160400390625 198.083160400390625 197.7352447509765625 197.6007843017578125 197.6007843017578125 197.9593048095703125 198.1796875 198.1796875 197.472076416015625 197.623382568359375 197.623382568359375 197.5008544921875 197.3229217529296875 197.3229217529296875 197.3948822021484375 197.4979248046875 197.4979248046875 197.1606597900390625 197.15411376953125 197.15411376953125 197.3044281005859375 197.0634765625 197.0634765625 197.0518798828125 197.1877593994140625 197.1877593994140625 197.1118621826171875 197.05712890625 197.05712890625 196.8711700439453125 196.915679931640625 196.915679931640625 196.992156982421875 197.455780029296875 197.455780029296875 196.5 196.5 196.5 196.5 198.199310302734375 198.199310302734375 197.605499267578125 197.43792724609375 197.43792724609375 197.3846282958984375 197.384246826171875 197.384246826171875 197.83551025390625 197.8720855712890625 197.8720855712890625 197.5751495361328125 197.7465057373046875 197.7465057373046875 197.8049468994140625 197.848175048828125 197.848175048828125 197.8488616943359375 198.29656982421875 198.29656982421875 198.421966552734375 198.76373291015625 198.76373291015625 198.5997467041015625 198.827606201171875 198.827606201171875 199.1149444580078125 199.0612640380859375 199.0612640380859375 199.076141357421875 199.1401824951171875
 199.1859283447265625 199.1859283447265625 199.7276458740234375 204.1848907470703125 204.1848907470703125 207.928680419921875 204.823333740234375 204.823333740234375 201.5936737060546875 200.795989990234375 200.795989990234375 201.2555999755859375 201.25543212890625 201.25543212890625 200.8698272705078125 200.5484771728515625 200.5484771728515625 200.988677978515625 201.3315582275390625 201.3315582275390625 201.2333221435546875 201.4033966064453125 201.4033966064453125 202.106536865234375 203.0258026123046875 203.0258026123046875 202.72955322265625 200.5382080078125 200.5382080078125 199.7500152587890625 199.1054840087890625 199.1054840087890625 198.543212890625 198.443878173828125 198.443878173828125 198.3119964599609375 197.955810546875 197.955810546875 198.170623779296875 198.2508544921875 198.2508544921875 197.983062744140625 198.20343017578125 198.20343017578125 198.31915283203125 197.6188507080078125 197.6188507080078125 197.7752227783203125 197.9423370361328125 197.9423370361328125 197.71746826171875 197.9569854736328125 197.9569854736328125 197.9682769775390625 197.941375732421875 197.941375732421875 197.5528717041015625 197.677093505859375 197.677093505859375 197.5726470947265625 197.69757080078125 197.69757080078125 197.7554168701171875 197.448394775390625 197.448394775390625 197.5285186767578125 197.2378997802734375 197.2378997802734375 197.472076416015625 197.5086517333984375 197.5086517333984375 197.0889739990234375 197.3335113525390625 197.3335113525390625 197.17059326171875 197.5123291015625 197.5123291015625 197.3976593017578125 197.6683502197265625 197.6683502197265625 197.5053558349609375 198.048797607421875 198.048797607421875 197.807098388671875 197.4200286865234375 197.4200286865234375 197.4129638671875 197.465728759765625 197.465728759765625 197.74566650390625 197.814056396484375 197.814056396484375 197.923187255859375 197.8802642822265625 197.8802642822265625 197.9134063720703125 198.084381103515625 198.084381103515625 198.22412109375 198.6699981689453125 198.6699981689453125 198.31951904296875 198.3949432373046875 198.3949432373046875 198.69622802734375 198.9755706787109375 198.9755706787109375 199.4121551513671875 199.5159149169921875 199.5159149169921875 199.408477783203125 199.2458038330078125
 199.8229522705078125 199.8229522705078125 199.976318359375 201.445648193359375 201.445648193359375 204.7991180419921875 208.0547027587890625 208.0547027587890625 207.6045684814453125 204.426971435546875 204.426971435546875 202.39654541015625 201.4045867919921875 201.4045867919921875 201.48236083984375 201.4222412109375 201.4222412109375 201.0414886474609375 201.212158203125 201.212158203125 201.26031494140625 201.630706787109375 201.630706787109375 202.1531982421875 203.624114990234375 203.624114990234375 204.628509521484375 201.531982421875 201.531982421875 200.309906005859375 199.586669921875 199.586669921875 199.0003509521484375 198.650543212890625 198.650543212890625 198.763763427734375 198.932373046875 198.932373046875 199.4125213623046875 199.0196075439453125 199.0196075439453125 198.4731903076171875 198.3733367919921875 198.3733367919921875 198.298828125 197.900390625 197.900390625 197.6207122802734375 197.9441986083984375 197.9441986083984375 198.0252532958984375 198.1869659423828125 198.1869659423828125 198.238067626953125 198.284881591796875 198.284881591796875 198.068695068359375 198.08587646484375 198.08587646484375 197.69683837890625 197.4828643798828125 197.4828643798828125 197.933685302734375 197.6571044921875 197.6571044921875 197.8860931396484375 197.86395263671875 197.86395263671875 197.6872711181640625 197.24993896484375 197.24993896484375 197.4778900146484375 197.6575164794921875 197.6575164794921875 197.563995361328125 197.257781982421875 197.257781982421875 197.7123260498046875 197.4714508056640625 197.4714508056640625 197.991485595703125 197.738677978515625 197.738677978515625 197.504638671875 197.487396240234375 197.487396240234375 197.437042236328125 197.545654296875 197.545654296875 197.57855224609375 197.5894012451171875 197.5894012451171875 198.116180419921875 198.0181427001953125 198.0181427001953125 197.7883148193359375 198.0711212158203125 198.0711212158203125 198.083526611328125 198.4807586669921875 198.4807586669921875 198.3634490966796875 198.4335784912109375 198.4335784912109375 198.6312103271484375 198.664794921875 198.664794921875 199.0916900634765625 199.303253173828125 199.303253173828125 199.190216064453125 199.1433868408203125
 199.3126373291015625 199.3126373291015625 199.01263427734375 200.169769287109375 200.169769287109375 200.6274261474609375 202.2224884033203125 202.2224884033203125 205.627899169921875 209.5950927734375 209.5950927734375 211.5606536865234375 205.7726898193359375 205.7726898193359375 202.7931060791015625 202.0950775146484375 202.0950775146484375 201.5912017822265625 201.7975006103515625 201.7975006103515625 201.5748443603515625 202.1380615234375 202.1380615234375 202.2309112548828125 202.738037109375 202.738037109375 202.52294921875 200.6927947998046875 200.6927947998046875 199.8978424072265625 199.9325408935546875 199.9325408935546875 199.4326019287109375 199.0310211181640625 199.0310211181640625 199.05133056640625 199.2672119140625 199.2672119140625 199.5805511474609375 199.398681640625 199.398681640625 198.6729888916015625 198.6553802490234375 198.6553802490234375 198.4926300048828125 197.7480010986328125 197.7480010986328125 197.8914337158203125 198.045166015625 198.045166015625 198.273040771484375 198.227691650390625 198.227691650390625 198.5424346923828125 198.4941864013671875 198.4941864013671875 198.5202178955078125 198.263214111328125 198.263214111328125 198.2516937255859375 198.2551116943359375 198.2551116943359375 198.107269287109375 197.967132568359375 197.967132568359375 197.980712890625 197.7476043701171875 197.7476043701171875 197.6791839599609375 197.7143402099609375 197.7143402099609375 197.9797821044921875 197.67156982421875 197.67156982421875 197.325042724609375 197.677703857421875 197.677703857421875 197.7083892822265625 197.4081268310546875 197.4081268310546875 197.7767333984375 197.6679534912109375 197.6679534912109375 197.4997711181640625 197.53302001953125 197.53302001953125 197.862640380859375 197.599395751953125 197.599395751953125 197.9003753662109375 197.7900543212890625 197.7900543212890625 198.014404296875 197.93145751953125 197.93145751953125 197.9443817138671875 197.9799957275390625 197.9799957275390625 198.3913726806640625 198.6949005126953125 198.6949005126953125 198.7516326904296875 199.0398712158203125 199.0398712158203125 198.9511871337890625 198.70867919921875 198.70867919921875 198.8580780029296875 199.465728759765625 199.465728759765625 199.2177581787109375 199.128814697265625
 199.8337249755859375 199.8337249755859375 199.7626800537109375 199.8744354248046875 199.8744354248046875 199.4240264892578125 200.234100341796875 200.234100341796875 201.2361907958984375 204.6123504638671875 204.6123504638671875 208.7072296142578125 210.936614990234375 210.936614990234375 210.66461181640625 205.4186248779296875 205.4186248779296875 202.3536834716796875 201.894195556640625 201.894195556640625 201.80523681640625 202.4211273193359375 202.4211273193359375 202.638214111328125 202.087646484375 202.087646484375 201.2113189697265625 200.3859100341796875 200.3859100341796875 200.0567626953125 199.95611572265625 199.95611572265625 200.0141143798828125 199.65771484375 199.65771484375 199.700103759765625 199.7975616455078125 199.7975616455078125 199.8478240966796875 199.7778472900390625 199.7778472900390625 199.2643280029296875 199.2879791259765625 199.2879791259765625 198.773101806640625 198.12347412109375 198.12347412109375 198.1888580322265625 198.0771636962890625 198.0771636962890625 198.3962860107421875 198.779296875 198.779296875 198.8502197265625 198.9949493408203125 198.9949493408203125 199.0992889404296875 198.7279815673828125 198.7279815673828125 198.44488525390625 198.685150146484375 198.685150146484375 198.4959869384765625 198.4204864501953125 198.4204864501953125 198.4342498779296875 198.3096160888671875 198.3096160888671875 198.1785125732421875 198.1181640625 198.1181640625 198.0151214599609375 197.6453399658203125 197.6453399658203125 197.7930450439453125 197.8788604736328125 197.8788604736328125 197.612579345703125 197.275604248046875 197.275604248046875 197.780517578125 197.9319610595703125 197.9319610595703125 197.7210845947265625 197.6724853515625 197.6724853515625 197.793548583984375 197.8444061279296875 197.8444061279296875 198.0116424560546875 198.1497039794921875 198.1497039794921875 197.88543701171875 197.971099853515625 197.971099853515625 198.0919647216796875 197.729522705078125 197.729522705078125 198.2484130859375 198.1710968017578125 198.1710968017578125 198.345001220703125 198.3151397705078125 198.3151397705078125 198.628173828125 198.9353790283203125 198.9353790283203125 199.0612030029296875 199.1634674072265625 199.1634674072265625 199.273529052734375 199.2294921875
 199.30010986328125 199.30010986328125 198.8119964599609375 199.6475372314453125 199.6475372314453125 202.853363037109375 203.2207183837890625 203.2207183837890625 201.8517913818359375 201.7738189697265625 201.7738189697265625 202.6757659912109375 205.936187744140625 205.936187744140625 209.4317474365234375 211.9587249755859375 211.9587249755859375 210.783172607421875 206.643707275390625 206.643707275390625 202.744598388671875 202.340606689453125 202.340606689453125 202.418426513671875 202.553863525390625 202.553863525390625 201.5432891845703125 200.898223876953125 200.898223876953125 201.0739593505859375 200.6336212158203125 200.6336212158203125 200.3829193115234375 200.56201171875 200.56201171875 200.265960693359375 200.4345550537109375 200.4345550537109375 200.4583892822265625 200.0491485595703125 200.0491485595703125 200.1453094482421875 199.726593017578125 199.726593017578125 199.3062896728515625 198.9757537841796875 198.9757537841796875 198.54949951171875 198.6304168701171875 198.6304168701171875 199.0782623291015625 199.4471435546875 199.4471435546875 199.7219085693359375 199.666168212890625 199.666168212890625 199.6091766357421875 199.2892303466796875 199.2892303466796875 199.3118896484375 199.1775360107421875 199.1775360107421875 199.121551513671875 198.622802734375 198.622802734375 198.7394561767578125 198.7486572265625 198.7486572265625 198.6726531982421875 199.0771636962890625 199.0771636962890625 198.447418212890625 197.888885498046875 197.888885498046875 198.3694000244140625 198.2165374755859375 198.2165374755859375 197.882781982421875 197.9671630859375 197.9671630859375 198.048614501953125 198.1745758056640625 198.1745758056640625 197.8948822021484375 197.59344482421875 197.59344482421875 197.9761962890625 198.1537017822265625 198.1537017822265625 197.962371826171875 198.113555908203125 198.113555908203125 197.9389495849609375 198.038482666015625 198.038482666015625 198.0074920654296875 198.021240234375 198.021240234375 198.338958740234375 198.1768951416015625 198.1768951416015625 198.9382171630859375 198.6660919189453125 198.6660919189453125 198.4406280517578125 198.6269683837890625 198.6269683837890625 199.179351806640625 198.78253173828125 198.78253173828125 199.2020263671875 199.1367950439453125
 199.31854248046875 199.31854248046875 198.844451904296875 200.0654754638671875 200.0654754638671875 205.19671630859375 208.2579193115234375 208.2579193115234375 210.207916259765625 207.0252532958984375 207.0252532958984375 203.864349365234375 202.6661529541015625 202.6661529541015625 203.8495635986328125 205.1673126220703125 205.1673126220703125 209.285888671875 211.5809173583984375 211.5809173583984375 211.973114013671875 206.1075592041015625 206.1075592041015625 202.8267669677734375 202.8309326171875 202.8309326171875 202.0718536376953125 201.716217041015625 201.716217041015625 201.3480072021484375 200.640350341796875 200.640350341796875 200.6522216796875 200.8787994384765625 200.8787994384765625 200.6935272216796875 200.7881317138671875 200.7881317138671875 200.5639190673828125 200.49700927734375 200.49700927734375 200.6587677001953125 200.1150054931640625 200.1150054931640625 199.8202056884765625 199.2869873046875 199.2869873046875 198.720672607421875 199.14794921875 199.14794921875 199.6759185791015625 199.831573486328125 199.831573486328125 200.501708984375 200.8575439453125 200.8575439453125 200.337921142578125 200.16082763671875 200.16082763671875 199.79949951171875 199.5701141357421875 199.5701141357421875 198.9653778076171875 198.920501708984375 198.920501708984375 199.1594696044921875 198.8365478515625 198.8365478515625 198.469696044921875 198.5359649658203125 198.5359649658203125 198.584564208984375 198.3206939697265625 198.3206939697265625 198.265167236328125 198.22027587890625 198.22027587890625 198.213592529296875 198.355499267578125 198.355499267578125 198.16387939453125 198.1933746337890625 198.1933746337890625 198.0537109375 197.9822845458984375 197.9822845458984375 198.39923095703125 198.442718505859375 198.442718505859375 198.0262603759765625 198.1287689208984375 198.1287689208984375 198.1792449951171875 197.942535400390625 197.942535400390625 198.11474609375 198.4868927001953125 198.4868927001953125 198.1593475341796875 198.347747802734375 198.347747802734375 198.576873779296875 198.539276123046875 198.539276123046875 198.4866485595703125 198.6956634521484375 198.6956634521484375 199.122467041015625 198.83587646484375 198.83587646484375 198.79754638671875 198.966064453125
 199.4115753173828125 199.4115753173828125 198.54339599609375 199.7984466552734375 199.7984466552734375 200.51885986328125 203.778076171875 203.778076171875 208.4793243408203125 211.8566741943359375 211.8566741943359375 212.588226318359375 210.1568603515625 210.1568603515625 204.859649658203125 203.142059326171875 203.142059326171875 204.825042724609375 207.2746734619140625 207.2746734619140625 210.6474456787109375 214.64080810546875 214.64080810546875 211.2969512939453125 207.2602996826171875 207.2602996826171875 203.5086517333984375 202.029754638671875 202.029754638671875 201.2528533935546875 201.1526947021484375 201.1526947021484375 201.074615478515625 201.18408203125 201.18408203125 201.1763458251953125 201.261260986328125 201.261260986328125 201.2566375732421875 201.05242919921875 201.05242919921875 200.991973876953125 200.7570037841796875 200.7570037841796875 200.2837677001953125 199.7801971435546875 199.7801971435546875 199.1584930419921875 199.21630859375 199.21630859375 199.951873779296875 200.550689697265625 200.550689697265625 201.09332275390625 201.5731048583984375 201.5731048583984375 201.09820556640625 200.552978515625 200.552978515625 200.64117431640625 200.22021484375 200.22021484375 199.5901947021484375 199.5751953125 199.5751953125 199.4788360595703125 199.3709564208984375 199.3709564208984375 199.08538818359375 199.1964874267578125 199.1964874267578125 198.7263336181640625 198.484130859375 198.484130859375 198.6144866943359375 198.6077728271484375 198.6077728271484375 199.0626983642578125 198.499053955078125 198.499053955078125 198.4493865966796875 198.4281005859375 198.4281005859375 198.190155029296875 198.2685394287109375 198.2685394287109375 198.2874755859375 198.1378021240234375 198.1378021240234375 197.9095001220703125 198.0278472900390625 198.0278472900390625 197.86663818359375 198.280975341796875 198.280975341796875 198.59246826171875 198.339080810546875 198.339080810546875 198.263702392578125 197.9296417236328125 197.9296417236328125 198.5297088623046875 198.4535675048828125 198.4535675048828125 198.692169189453125 198.560638427734375 198.560638427734375 198.6819915771484375 198.7023773193359375 198.7023773193359375 198.4394378662109375 198.5640716552734375
 198.565948486328125 198.565948486328125 198.6664276123046875 200.1930389404296875 200.1930389404296875 199.8663330078125 200.55072021484375 200.55072021484375 202.241607666015625 206.0054168701171875 206.0054168701171875 211.1585845947265625 215.3196868896484375 215.3196868896484375 213.7486114501953125 209.092742919921875 209.092742919921875 205.5782470703125 203.9813995361328125 203.9813995361328125 205.1433563232421875 207.98431396484375 207.98431396484375 211.4895782470703125 214.697021484375 214.697021484375 213.6801910400390625 206.032470703125 206.032470703125 201.98162841796875 201.356048583984375 201.356048583984375 201.4508819580078125 201.70806884765625 201.70806884765625 201.34381103515625 201.7162322998046875 201.7162322998046875 201.6642913818359375 201.53387451171875 201.53387451171875 201.2633209228515625 201.13330078125 201.13330078125 200.9937286376953125 200.3835906982421875 200.3835906982421875 199.7816925048828125 199.6116485595703125 199.6116485595703125 200.2607574462890625 200.9832305908203125 200.9832305908203125 201.8250732421875 202.2220306396484375 202.2220306396484375 202.0871429443359375 202.0307769775390625 202.0307769775390625 201.75079345703125 201.1414794921875 201.1414794921875 200.42022705078125 200.15838623046875 200.15838623046875 199.9371490478515625 199.7174224853515625 199.7174224853515625 199.248077392578125 199.1913299560546875 199.1913299560546875 198.86090087890625 198.6210479736328125 198.6210479736328125 198.527069091796875 198.770355224609375 198.770355224609375 198.9687652587890625 198.9236297607421875 198.9236297607421875 198.8452301025390625 198.67144775390625 198.67144775390625 198.407684326171875 198.0986480712890625 198.0986480712890625 198.1698760986328125 198.3853607177734375 198.3853607177734375 197.9692230224609375 198.143768310546875 198.143768310546875 198.3981781005859375 198.16766357421875 198.16766357421875 198.2384033203125 197.9385833740234375 197.9385833740234375 198.1552581787109375 198.468780517578125 198.468780517578125 199.22955322265625 198.6962432861328125 198.6962432861328125 198.6278839111328125 198.8744659423828125 198.8744659423828125 198.744476318359375 198.943389892578125 198.943389892578125 198.799957275390625 198.6300048828125
 198.5430755615234375 198.5430755615234375 199.1697845458984375 199.6754913330078125 199.6754913330078125 200.1342315673828125 200.8458099365234375 200.8458099365234375 201.2953643798828125 202.1121063232421875 202.1121063232421875 203.45245361328125 206.3104705810546875 206.3104705810546875 210.716796875 215.33538818359375 215.33538818359375 216.3945465087890625 211.3297576904296875 211.3297576904296875 205.3872528076171875 204.665130615234375 204.665130615234375 205.12066650390625 208.0582122802734375 208.0582122802734375 211.2111968994140625 213.39593505859375 213.39593505859375 212.0191650390625 205.105682373046875 205.105682373046875 202.9645233154296875 203.8515472412109375 203.8515472412109375 201.92608642578125 202.3202667236328125 202.3202667236328125 202.4749298095703125 203.4544677734375 203.4544677734375 202.0971527099609375 201.43341064453125 201.43341064453125 200.788421630859375 200.60076904296875 200.60076904296875 200.4809417724609375 200.1732635498046875 200.1732635498046875 200.5426788330078125 201.391937255859375 201.391937255859375 202.0462799072265625 202.682403564453125 202.682403564453125 202.852264404296875 203.6756744384765625 203.6756744384765625 203.5108184814453125 201.948272705078125 201.948272705078125 200.8813323974609375 200.633514404296875 200.633514404296875 200.1853790283203125 199.871490478515625 199.871490478515625 199.71527099609375 199.2929534912109375 199.2929534912109375 198.95196533203125 198.9215545654296875 198.9215545654296875 198.7724456787109375 199.2426910400390625 199.2426910400390625 199.3967742919921875 199.39776611328125 199.39776611328125 199.1299896240234375 198.906768798828125 198.906768798828125 198.6944580078125 198.5949249267578125 198.5949249267578125 198.5591278076171875 198.2048797607421875 198.2048797607421875 198.1620635986328125 198.1562347412109375 198.1562347412109375 198.343231201171875 198.047149658203125 198.047149658203125 198.171234130859375 197.9782562255859375 197.9782562255859375 198.2679901123046875 198.3762664794921875 198.3762664794921875 199.4626922607421875 198.69964599609375 198.69964599609375 198.94757080078125 198.8977203369140625 198.8977203369140625 198.965728759765625 198.8857421875 198.8857421875 198.661376953125 199.15960693359375
 199.152313232421875 199.152313232421875 199.29547119140625 199.449249267578125 199.449249267578125 200.5528411865234375 200.99853515625 200.99853515625 201.3309173583984375 202.0667877197265625 202.0667877197265625 202.32147216796875 202.32513427734375 202.32513427734375 202.9944000244140625 205.9142608642578125 205.9142608642578125 212.5125885009765625 217.5234375 217.5234375 216.1739501953125 210.4882965087890625 210.4882965087890625 206.076629638671875 204.5983428955078125 204.5983428955078125 205.202392578125 207.087860107421875 207.087860107421875 209.427642822265625 209.2730560302734375 209.2730560302734375 204.93243408203125 204.1780853271484375 204.1780853271484375 202.7236480712890625 203.0325469970703125 203.0325469970703125 203.2961578369140625 203.7864837646484375 203.7864837646484375 202.20770263671875 201.6878509521484375 201.6878509521484375 201.4694366455078125 200.756744384765625 200.756744384765625 200.801055908203125 200.8079376220703125 200.8079376220703125 201.096771240234375 201.436187744140625 201.436187744140625 201.8775634765625 202.7277374267578125 202.7277374267578125 203.5226287841796875 205.788726806640625 205.788726806640625 205.2590789794921875 202.0418243408203125 202.0418243408203125 201.218658447265625 201.007293701171875 201.007293701171875 200.602020263671875 200.176483154296875 200.176483154296875 200.1380157470703125 199.2054595947265625 199.2054595947265625 199.3360137939453125 199.4171142578125 199.4171142578125 199.357391357421875 199.55108642578125 199.55108642578125 199.863067626953125 199.66217041015625 199.66217041015625 199.6687469482421875 199.376739501953125 199.376739501953125 199.2860107421875 199.285400390625 199.285400390625 198.8625946044921875 198.446441650390625 198.446441650390625 198.324615478515625 198.58526611328125 198.58526611328125 198.3896026611328125 198.13922119140625 198.13922119140625 198.046630859375 198.355377197265625 198.355377197265625 198.064666748046875 198.344207763671875 198.344207763671875 199.5449676513671875 198.8219146728515625 198.8219146728515625 198.7292327880859375 198.7100830078125 198.7100830078125 198.5943450927734375 199.0124664306640625 199.0124664306640625 198.95849609375 198.8839263916015625
 199.0171051025390625 199.0171051025390625 199.3019256591796875 200.102203369140625 200.102203369140625 200.9507598876953125 201.1611480712890625 201.1611480712890625 201.401580810546875 202.6281585693359375 202.6281585693359375 202.581878662109375 202.49383544921875 202.49383544921875 202.3888397216796875 202.1870574951171875 202.1870574951171875 203.9497528076171875 207.917388916015625 207.917388916015625 213.5632476806640625 217.0563201904296875 217.0563201904296875 215.5015716552734375 208.0322723388671875 208.0322723388671875 206.2157745361328125 204.6617889404296875 204.6617889404296875 204.9039459228515625 204.41693115234375 204.41693115234375 203.804168701171875 203.79193115234375 203.79193115234375 205.874053955078125 205.3542633056640625 205.3542633056640625 203.662872314453125 203.24615478515625 203.24615478515625 202.499908447265625 202.21405029296875 202.21405029296875 201.97802734375 201.4420623779296875 201.4420623779296875 201.624053955078125 201.599517822265625 201.599517822265625 201.69879150390625 201.77178955078125 201.77178955078125 201.743072509765625 202.43988037109375 202.43988037109375 203.001953125 203.7691497802734375 203.7691497802734375 204.0222930908203125 202.502471923828125 202.502471923828125 201.7423553466796875 201.7736663818359375 201.7736663818359375 201.3569183349609375 201.065521240234375 201.065521240234375 200.506317138671875 199.8470306396484375 199.8470306396484375 200.083221435546875 200.1157684326171875 200.1157684326171875 199.823150634765625 200.0153961181640625 200.0153961181640625 200.29718017578125 200.1984405517578125 200.1984405517578125 199.9167633056640625 199.7607269287109375 199.7607269287109375 199.7823028564453125 199.27783203125 199.27783203125 198.7909088134765625 199.2316131591796875 199.2316131591796875 199.02020263671875 198.64990234375 198.64990234375 198.4689788818359375 198.1888427734375 198.1888427734375 198.2071685791015625 198.2816009521484375 198.2816009521484375 198.483917236328125 198.4531402587890625 198.4531402587890625 199.1447601318359375 198.7211151123046875 198.7211151123046875 198.7692718505859375 198.81475830078125 198.81475830078125 198.89373779296875 199.2423858642578125 199.2423858642578125 199.2237091064453125 198.83929443359375
 199.45355224609375 199.45355224609375 199.9611663818359375 200.7236785888671875 200.7236785888671875 201.1374969482421875 201.6498870849609375 201.6498870849609375 202.192718505859375 202.5832061767578125 202.5832061767578125 202.532867431640625 202.569549560546875 202.569549560546875 203.1823577880859375 203.2099609375 203.2099609375 203.076568603515625 203.383636474609375 203.383636474609375 205.2021942138671875 208.5504150390625 208.5504150390625 213.1952972412109375 214.7847137451171875 214.7847137451171875 212.6436920166015625 209.0407867431640625 209.0407867431640625 204.397491455078125 204.173736572265625 204.173736572265625 203.92034912109375 203.9451446533203125 203.9451446533203125 205.588531494140625 207.985687255859375 207.985687255859375 209.8740692138671875 207.8299102783203125 207.8299102783203125 204.7108612060546875 203.7128448486328125 203.7128448486328125 202.444305419921875 201.720428466796875 201.720428466796875 202.3698883056640625 202.5103912353515625 202.5103912353515625 202.5928192138671875 202.5396575927734375 202.5396575927734375 202.2729034423828125 202.67431640625 202.67431640625 203.43475341796875 203.7154541015625 203.7154541015625 203.26904296875 202.4557342529296875 202.4557342529296875 202.0738677978515625 202.441131591796875 202.441131591796875 202.1501617431640625 201.81829833984375 201.81829833984375 201.115570068359375 200.9112701416015625 200.9112701416015625 200.8855438232421875 200.828582763671875 200.828582763671875 200.657440185546875 200.6759490966796875 200.6759490966796875 200.8398590087890625 201.08648681640625 201.08648681640625 200.6842498779296875 200.3908538818359375 200.3908538818359375 200.0083160400390625 199.5469512939453125 199.5469512939453125 199.32659912109375 199.105743408203125 199.105743408203125 198.8622894287109375 198.76300048828125 198.76300048828125 198.6212921142578125 198.3491058349609375 198.3491058349609375 198.6141815185546875 198.5747528076171875 198.5747528076171875 198.60284423828125 198.571014404296875 198.571014404296875 198.6544189453125 198.8712158203125 198.8712158203125 199.0602874755859375 199.2547607421875 199.2547607421875 199.31378173828125 199.119232177734375 199.119232177734375 199.1733551025390625 198.811737060546875
 200.0235748291015625 200.0235748291015625 200.45428466796875 201.46844482421875 201.46844482421875 202.0217132568359375 202.293731689453125 202.293731689453125 202.6617584228515625 202.5473480224609375 202.5473480224609375 202.64434814453125 203.1328125 203.1328125 203.5831756591796875 203.879974365234375 203.879974365234375 203.6489105224609375 203.68231201171875 203.68231201171875 203.49139404296875 203.95831298828125 203.95831298828125 205.003082275390625 207.78472900390625 207.78472900390625 211.999267578125 212.7877197265625 212.7877197265625 210.85491943359375 205.7096099853515625 205.7096099853515625 204.3157501220703125 204.45367431640625 204.45367431640625 204.53814697265625 204.4969329833984375 204.4969329833984375 207.645233154296875 211.38409423828125 211.38409423828125 211.5991973876953125 209.457855224609375 209.457855224609375 205.9469451904296875 203.1282958984375 203.1282958984375 202.173980712890625 202.6800689697265625 202.6800689697265625 203.0770111083984375 203.222991943359375 203.222991943359375 203.650390625 203.7244415283203125 203.7244415283203125 203.6920623779296875 203.4262237548828125 203.4262237548828125 203.365142822265625 202.8272552490234375 202.8272552490234375 202.7834320068359375 202.80426025390625 202.80426025390625 202.6508331298828125 202.2503509521484375 202.2503509521484375 201.8599700927734375 201.4003143310546875 201.4003143310546875 201.1077117919921875 201.3032073974609375 201.3032073974609375 201.3517303466796875 201.85906982421875 201.85906982421875 201.798553466796875 201.6318817138671875 201.6318817138671875 201.3622589111328125 201.05364990234375 201.05364990234375 200.6773223876953125 200.2509002685546875 200.2509002685546875 199.91497802734375 199.5954742431640625 199.5954742431640625 199.126220703125 199.189544677734375 199.189544677734375 198.9801025390625 198.566558837890625 198.566558837890625 198.4998779296875 198.776092529296875 198.776092529296875 198.58831787109375 198.6196746826171875 198.6196746826171875 198.49835205078125 198.641571044921875 198.641571044921875 199.0228118896484375 199.1116180419921875 199.1116180419921875 198.8515625 198.84423828125 198.84423828125 199.0157470703125 198.777008056640625
 200.3305511474609375 200.3305511474609375 201.300323486328125 202.07666015625 202.07666015625 202.5359039306640625 202.5574493408203125 202.5574493408203125 202.8993072509765625 203.0558624267578125 203.0558624267578125 203.044708251953125 203.649932861328125 203.649932861328125 203.622711181640625 203.8301239013671875 203.8301239013671875 203.98321533203125 203.960540771484375 203.960540771484375 203.2255706787109375 203.4286041259765625 203.4286041259765625 204.0398101806640625 203.94378662109375 203.94378662109375 204.173858642578125 206.78265380859375 206.78265380859375 210.5369415283203125 213.48553466796875 213.48553466796875 211.84173583984375 206.9567108154296875 206.9567108154296875 204.31298828125 204.555755615234375 204.555755615234375 204.6509552001953125 204.63470458984375 204.63470458984375 206.4036407470703125 210.7948455810546875 210.7948455810546875 213.5069122314453125 210.064422607421875 210.064422607421875 206.1316986083984375 203.612335205078125 203.612335205078125 203.4676666259765625 203.9728851318359375 203.9728851318359375 204.28826904296875 204.3085479736328125 204.3085479736328125 204.1434173583984375 203.8601226806640625 203.8601226806640625 203.8127288818359375 203.397674560546875 203.397674560546875 203.431610107421875 203.3493194580078125 203.3493194580078125 203.1332550048828125 202.7191009521484375 202.7191009521484375 202.4426422119140625 201.6508331298828125 201.6508331298828125 201.381378173828125 201.837432861328125 201.837432861328125 202.2176666259765625 202.5391082763671875 202.5391082763671875 202.4947509765625 202.5466766357421875 202.5466766357421875 202.1450042724609375 201.7010650634765625 201.7010650634765625 201.5937652587890625 200.9776611328125 200.9776611328125 200.131500244140625 200.2307586669921875 200.2307586669921875 199.7967376708984375 199.2388458251953125 199.2388458251953125 199.3600921630859375 199.3212432861328125 199.3212432861328125 199.05828857421875 199.0372772216796875 199.0372772216796875 198.94598388671875 198.7696533203125 198.7696533203125 198.8033599853515625 198.6419830322265625 198.6419830322265625 199.0838775634765625 199.0268707275390625 199.0268707275390625 199.0507049560546875 199.01226806640625 199.01226806640625 199.1833038330078125 199.020172119140625
 201.01495361328125 201.01495361328125 202.047637939453125 202.6027069091796875 202.6027069091796875 202.801239013671875 202.7714996337890625 202.7714996337890625 203.1428985595703125 203.3813018798828125 203.3813018798828125 203.524749755859375 203.861297607421875 203.861297607421875 203.7677154541015625 204.2002410888671875 204.2002410888671875 204.151397705078125 204.0500946044921875 204.0500946044921875 203.3591156005859375 203.346832275390625 203.346832275390625 203.78594970703125 203.8512115478515625 203.8512115478515625 203.9661102294921875 204.0550689697265625 204.0550689697265625 204.297943115234375 207.22607421875 207.22607421875 210.82904052734375 213.888824462890625 213.888824462890625 211.966583251953125 208.7816009521484375 208.7816009521484375 205.7375335693359375 204.6506500244140625 204.6506500244140625 205.0278472900390625 205.0969390869140625 205.0969390869140625 206.764862060546875 209.1583709716796875 209.1583709716796875 212.626220703125 211.5369110107421875 211.5369110107421875 208.4980010986328125 204.36395263671875 204.36395263671875 204.095947265625 204.191497802734375 204.191497802734375 204.2814483642578125 204.2083892822265625 204.2083892822265625 204.054107666015625 204.2122650146484375 204.2122650146484375 204.64654541015625 204.347930908203125 204.347930908203125 203.8675689697265625 203.5940093994140625 203.5940093994140625 203.0478668212890625 201.6327362060546875 201.6327362060546875 201.8221435546875 203.12664794921875 203.12664794921875 203.78521728515625 202.9920196533203125 202.9920196533203125 203.085113525390625 202.9431915283203125 202.9431915283203125 202.8433990478515625 202.496002197265625 202.496002197265625 202.162078857421875 201.4039306640625 201.4039306640625 200.7897491455078125 200.7162322998046875 200.7162322998046875 200.358062744140625 199.4917449951171875 199.4917449951171875 199.230010986328125 198.948944091796875 198.948944091796875 198.9073333740234375 199.0193328857421875 199.0193328857421875 198.9001007080078125 199.112457275390625 199.112457275390625 199.2656707763671875 199.1528472900390625 199.1528472900390625 199.142242431640625 199.282012939453125 199.282012939453125 199.1082000732421875 199.288360595703125 199.288360595703125 199.095733642578125 199.0260467529296875
 201.8494110107421875 201.8494110107421875 202.5850982666015625 202.916015625 202.916015625 203.3266448974609375 203.367523193359375 203.367523193359375 203.674560546875 203.6168670654296875 203.6168670654296875 203.4742584228515625 203.6091461181640625 203.6091461181640625 203.9277801513671875 204.4184417724609375 204.4184417724609375 204.18878173828125 203.88262939453125 203.88262939453125 203.8295440673828125 203.7441253662109375 203.7441253662109375 204.0163421630859375 204.0000762939453125 204.0000762939453125 204.024688720703125 204.541595458984375 204.541595458984375 204.0985565185546875 204.2150726318359375 204.2150726318359375 204.6681671142578125 207.353363037109375 207.353363037109375 212.3206024169921875 215.2901763916015625 215.2901763916015625 214.13812255859375 209.756011962890625 209.756011962890625 205.3271026611328125 205.169342041015625 205.169342041015625 205.1163482666015625 205.0059356689453125 205.0059356689453125 205.696990966796875 209.8426361083984375 209.8426361083984375 212.911407470703125 212.81201171875 212.81201171875 207.3623199462890625 204.3838653564453125 204.3838653564453125 204.15008544921875 203.9089202880859375 203.9089202880859375 203.6605377197265625 203.9459381103515625 203.9459381103515625 205.6337890625 206.9208831787109375 206.9208831787109375 204.709503173828125 203.7890625 203.7890625 203.41094970703125 202.3685760498046875 202.3685760498046875 202.17938232421875 204.733428955078125 204.733428955078125 204.9691162109375 203.502685546875 203.502685546875 203.530670166015625 203.4236907958984375 203.4236907958984375 203.2955169677734375 203.2897796630859375 203.2897796630859375 203.020263671875 202.3640594482421875 202.3640594482421875 201.9603271484375 201.2758331298828125 201.2758331298828125 200.3634185791015625 199.6513671875 199.6513671875 199.95208740234375 199.711212158203125 199.711212158203125 199.0084381103515625 199.043243408203125 199.043243408203125 198.758941650390625 199.2630767822265625 199.2630767822265625 199.55999755859375 199.4015350341796875 199.4015350341796875 199.33026123046875 199.5904693603515625 199.5904693603515625 199.4246063232421875 199.2790679931640625 199.2790679931640625 199.4548492431640625 199.3729095458984375
 202.1341552734375 202.1341552734375 203.15533447265625 203.30340576171875 203.30340576171875 204.06341552734375 203.9655914306640625 203.9655914306640625 204.2605133056640625 203.3850250244140625 203.3850250244140625 203.4077301025390625 203.6974945068359375 203.6974945068359375 204.0376434326171875 204.3555908203125 204.3555908203125 204.082275390625 203.60028076171875 203.60028076171875 203.5275726318359375 203.617279052734375 203.617279052734375 204.0682220458984375 204.24420166015625 204.24420166015625 204.3098297119140625 204.3344268798828125 204.3344268798828125 204.3462677001953125 204.3139495849609375 204.3139495849609375 204.5404815673828125 205.97052001953125 205.97052001953125 205.6008148193359375 207.3692169189453125 207.3692169189453125 211.674835205078125 213.2318878173828125 213.2318878173828125 212.3841552734375 207.974517822265625 207.974517822265625 205.2507476806640625 205.367095947265625 205.367095947265625 205.470001220703125 205.141357421875 205.141357421875 206.082122802734375 210.0070953369140625 210.0070953369140625 212.870941162109375 211.078338623046875 211.078338623046875 207.8328704833984375 204.3059234619140625 204.3059234619140625 203.7568511962890625 203.9800872802734375 203.9800872802734375 205.4078369140625 205.910430908203125 205.910430908203125 204.474884033203125 204.0697479248046875 204.0697479248046875 203.9756317138671875 203.47100830078125 203.47100830078125 203.1676025390625 204.9153594970703125 204.9153594970703125 204.431854248046875 204.077178955078125 204.077178955078125 203.909759521484375 203.9170074462890625 203.9170074462890625 203.52886962890625 203.5191650390625 203.5191650390625 203.4951171875 203.112884521484375 203.112884521484375 202.78802490234375 201.6749725341796875 201.6749725341796875 200.51025390625 200.6057281494140625 200.6057281494140625 200.450286865234375 199.9505615234375 199.9505615234375 199.607635498046875 199.220001220703125 199.220001220703125 198.8504638671875 198.852508544921875 198.852508544921875 199.25543212890625 199.593902587890625 199.593902587890625 199.697540283203125 199.467437744140625 199.467437744140625 199.4866790771484375 199.6185760498046875 199.6185760498046875 199.6437835693359375 199.6417083740234375
 202.772552490234375 202.772552490234375 204.318450927734375 204.3580169677734375 204.3580169677734375 204.5701904296875 204.5765228271484375 204.5765228271484375 204.3959503173828125 203.7380828857421875 203.7380828857421875 203.82659912109375 204.1957855224609375 204.1957855224609375 204.311981201171875 204.5894927978515625 204.5894927978515625 204.347625732421875 203.9336090087890625 203.9336090087890625 203.852752685546875 203.9276580810546875 203.9276580810546875 204.5093536376953125 204.406585693359375 204.406585693359375 204.599761962890625 204.263153076171875 204.263153076171875 204.432098388671875 204.271148681640625 204.271148681640625 205.4847869873046875 205.165252685546875 205.165252685546875 204.4202880859375 204.236541748046875 204.236541748046875 205.452972412109375 207.89910888671875 207.89910888671875 211.8636932373046875 214.6865997314453125 214.6865997314453125 213.096588134765625 208.3813018798828125 208.3813018798828125 205.388641357421875 205.621002197265625 205.621002197265625 205.2412109375 205.68646240234375 205.68646240234375 207.6488494873046875 211.9258880615234375 211.9258880615234375 214.5407562255859375 211.85528564453125 211.85528564453125 207.2954864501953125 204.7606658935546875 204.7606658935546875 204.8504486083984375 204.6097564697265625 204.6097564697265625 204.1714324951171875 204.011260986328125 204.011260986328125 203.8627471923828125 203.962860107421875 203.962860107421875 204.143463134765625 205.068572998046875 205.068572998046875 204.3142547607421875 204.0830078125 204.0830078125 204.076995849609375 203.834197998046875 203.834197998046875 203.6903076171875 203.746856689453125 203.746856689453125 203.8411407470703125 204.1599273681640625 204.1599273681640625 202.6113739013671875 201.671966552734375 201.671966552734375 200.8824310302734375 201.002105712890625 201.002105712890625 200.73443603515625 200.2444000244140625 200.2444000244140625 199.8917083740234375 199.64788818359375 199.64788818359375 199.2611083984375 199.06085205078125 199.06085205078125 199.69244384765625 200.208099365234375 200.208099365234375 199.8558807373046875 199.4790802001953125 199.4790802001953125 199.6380615234375 199.51947021484375 199.51947021484375 199.3391876220703125 199.5743255615234375
 202.8171539306640625 202.8171539306640625 205.15936279296875 206.4092864990234375 206.4092864990234375 205.9816131591796875 204.893310546875 204.893310546875 204.03765869140625 204.1322784423828125 204.1322784423828125 204.4735870361328125 204.607696533203125 204.607696533203125 204.6384735107421875 205.024932861328125 205.024932861328125 204.78997802734375 204.546539306640625 204.546539306640625 204.7027740478515625 204.934326171875 204.934326171875 205.043914794921875 205.107666015625 205.107666015625 204.68914794921875 204.51336669921875 204.51336669921875 204.259429931640625 204.4096832275390625 204.4096832275390625 205.5939788818359375 204.847991943359375 204.847991943359375 204.5677337646484375 204.3765869140625 204.3765869140625 204.563140869140625 204.68572998046875 204.68572998046875 205.43743896484375 207.148681640625 207.148681640625 211.3188018798828125 210.7561187744140625 210.7561187744140625 206.1676177978515625 204.9634857177734375 204.9634857177734375 205.681854248046875 205.905364990234375 205.905364990234375 205.7965087890625 205.990203857421875 205.990203857421875 208.3862457275390625 211.3527374267578125 211.3527374267578125 215.61846923828125 213.7844696044921875 213.7844696044921875 208.5508880615234375 205.34893798828125 205.34893798828125 204.6850128173828125 204.3097381591796875 204.3097381591796875 204.177886962890625 204.635009765625 204.635009765625 205.745513916015625 204.924530029296875 204.924530029296875 204.0504302978515625 204.23895263671875 204.23895263671875 204.502685546875 204.3307037353515625 204.3307037353515625 204.30804443359375 203.9721832275390625 203.9721832275390625 203.8548126220703125 204.3066864013671875 204.3066864013671875 202.32183837890625 201.6630859375 201.6630859375 201.40203857421875 201.5797119140625 201.5797119140625 200.9981536865234375 200.589752197265625 200.589752197265625 200.3339080810546875 199.543426513671875 199.543426513671875 199.5432891845703125 199.3170318603515625 199.3170318603515625 199.5459747314453125 200.0397796630859375 200.0397796630859375 199.8410186767578125 199.6207427978515625 199.6207427978515625 199.3462066650390625 199.5424652099609375 199.5424652099609375 199.68890380859375 199.743377685546875
 202.86212158203125 202.86212158203125 204.214111328125 205.2252960205078125 205.2252960205078125 205.7097625732421875 205.2867279052734375 205.2867279052734375 204.617095947265625 204.832275390625 204.832275390625 205.03033447265625 205.197265625 205.197265625 204.795074462890625 204.920989990234375 204.920989990234375 204.9412994384765625 204.743255615234375 204.743255615234375 205.3682403564453125 205.6645050048828125 205.6645050048828125 205.9324798583984375 205.217376708984375 205.217376708984375 204.6419677734375 204.5730438232421875 204.5730438232421875 204.44757080078125 204.93426513671875 204.93426513671875 205.8374481201171875 205.109283447265625 205.109283447265625 204.731292724609375 204.8262481689453125 204.8262481689453125 205.2689666748046875 205.274139404296875 205.274139404296875 205.7011871337890625 205.26318359375 205.26318359375 205.1355743408203125 205.6736297607421875 205.6736297607421875 205.1432952880859375 205.1294708251953125 205.1294708251953125 205.4188995361328125 205.6067047119140625 205.6067047119140625 206.2829132080078125 205.8861236572265625 205.8861236572265625 205.833221435546875 205.5712127685546875 205.5712127685546875 208.744598388671875 210.9409637451171875 210.9409637451171875 214.927764892578125 211.786865234375 211.786865234375 208.728729248046875 205.028350830078125 205.028350830078125 204.7914581298828125 206.1404876708984375 206.1404876708984375 206.6806640625 204.7028350830078125 204.7028350830078125 204.351837158203125 204.231597900390625 204.231597900390625 204.3429412841796875 204.4141693115234375 204.4141693115234375 204.5450439453125 203.893035888671875 203.893035888671875 203.2114105224609375 202.8289794921875 202.8289794921875 201.8292236328125 201.7602691650390625 201.7602691650390625 201.852508544921875 201.782562255859375 201.782562255859375 201.251312255859375 200.3922271728515625 200.3922271728515625 200.6416473388671875 199.515777587890625 199.515777587890625 199.4457244873046875 199.3774871826171875 199.3774871826171875 199.1868896484375 199.207000732421875 199.207000732421875 199.8482666015625 199.6784820556640625 199.6784820556640625 199.4877471923828125 199.4719085693359375 199.4719085693359375 199.4552764892578125 199.8094482421875
 203.11383056640625 203.11383056640625 204.4340972900390625 205.3367919921875 205.3367919921875 205.460662841796875 205.717742919921875 205.717742919921875 205.56341552734375 205.76763916015625 205.76763916015625 205.6215972900390625 205.263427734375 205.263427734375 205.25494384765625 205.0250701904296875 205.0250701904296875 204.87957763671875 204.62646484375 204.62646484375 205.182952880859375 205.8563690185546875 205.8563690185546875 206.1751556396484375 205.1861419677734375 205.1861419677734375 204.5595855712890625 204.8857269287109375 204.8857269287109375 204.8038787841796875 204.811737060546875 204.811737060546875 205.1248931884765625 205.8103790283203125 205.8103790283203125 205.88555908203125 205.666900634765625 205.666900634765625 205.4601593017578125 205.3867340087890625 205.3867340087890625 205.6067047119140625 205.8259735107421875 205.8259735107421875 205.866943359375 205.79315185546875 205.79315185546875 205.3619384765625 204.8198394775390625 204.8198394775390625 205.1027984619140625 205.7641754150390625 205.7641754150390625 206.279327392578125 206.50799560546875 206.50799560546875 207.0354766845703125 205.8515472412109375 205.8515472412109375 205.9770050048828125 205.888427734375 205.888427734375 208.5911407470703125 211.8171844482421875 211.8171844482421875 217.2156219482421875 216.5527801513671875 216.5527801513671875 207.89056396484375 205.29510498046875 205.29510498046875 205.4395904541015625 204.9814910888671875 204.9814910888671875 204.958709716796875 204.6735076904296875 204.6735076904296875 204.7161407470703125 204.5468597412109375 204.5468597412109375 204.2489166259765625 203.2657470703125 203.2657470703125 202.7194976806640625 202.061279296875 202.061279296875 201.8975677490234375 201.958770751953125 201.958770751953125 202.0411529541015625 201.759185791015625 201.759185791015625 201.4110870361328125 200.4621429443359375 200.4621429443359375 200.9295806884765625 199.809417724609375 199.809417724609375 199.5080413818359375 199.091705322265625 199.091705322265625 199.12713623046875 199.2158203125 199.2158203125 199.3700714111328125 199.507110595703125 199.507110595703125 199.6932525634765625 199.436920166015625 199.436920166015625 199.695281982421875 200.0212249755859375
 203.6414337158203125 203.6414337158203125 205.2716522216796875 206.4049224853515625 206.4049224853515625 205.8691864013671875 206.04345703125 206.04345703125 206.076751708984375 206.229522705078125 206.229522705078125 205.8267364501953125 205.56512451171875 205.56512451171875 205.5023040771484375 205.6444091796875 205.6444091796875 205.346099853515625 205.490966796875 205.490966796875 205.6154022216796875 205.676116943359375 205.676116943359375 206.3418426513671875 205.470947265625 205.470947265625 205.3908538818359375 205.831451416015625 205.831451416015625 205.321990966796875 204.5389404296875 204.5389404296875 205.16815185546875 205.465362548828125 205.465362548828125 205.367889404296875 205.4586029052734375 205.4586029052734375 206.3551025390625 207.051239013671875 207.051239013671875 206.943206787109375 206.535858154296875 206.535858154296875 205.96685791015625 206.5483245849609375 206.5483245849609375 205.420745849609375 204.8969573974609375 204.8969573974609375 205.4108428955078125 204.85296630859375 204.85296630859375 206.6608734130859375 208.4596710205078125 208.4596710205078125 209.34228515625 207.7291259765625 207.7291259765625 206.862884521484375 206.1342010498046875 206.1342010498046875 206.3641204833984375 206.92498779296875 206.92498779296875 210.377777099609375 212.9857025146484375 212.9857025146484375 208.1860809326171875 206.2900390625 206.2900390625 206.478271484375 206.0429840087890625 206.0429840087890625 205.3341064453125 205.1541595458984375 205.1541595458984375 204.9104766845703125 204.69189453125 204.69189453125 204.222808837890625 203.32244873046875 203.32244873046875 203.0201416015625 202.3226470947265625 202.3226470947265625 202.20306396484375 202.112091064453125 202.112091064453125 202.169036865234375 201.560821533203125 201.560821533203125 201.6570281982421875 200.7737274169921875 200.7737274169921875 200.6704254150390625 200.178070068359375 200.178070068359375 199.769287109375 199.3534698486328125 199.3534698486328125 199.2295379638671875 199.4990081787109375 199.4990081787109375 199.8985443115234375 199.7581024169921875 199.7581024169921875 199.6421356201171875 199.2772064208984375 199.2772064208984375 199.5714569091796875 199.48602294921875
 205.5974578857421875 205.5974578857421875 206.7889251708984375 206.6830902099609375 206.6830902099609375 206.0535125732421875 206.1356048583984375 206.1356048583984375 206.3787841796875 206.47674560546875 206.47674560546875 206.43170166015625 205.7402801513671875 205.7402801513671875 205.8235626220703125 205.79449462890625 205.79449462890625 205.666107177734375 206.1143646240234375 206.1143646240234375 207.6155853271484375 207.26806640625 207.26806640625 206.4776458740234375 206.7592315673828125 206.7592315673828125 206.5425872802734375 206.428466796875 206.428466796875 205.9731597900390625 205.387481689453125 205.387481689453125 205.5585479736328125 205.868316650390625 205.868316650390625 205.7015228271484375 205.4047393798828125 205.4047393798828125 205.308013916015625 205.6448211669921875 205.6448211669921875 206.0793914794921875 206.8396148681640625 206.8396148681640625 205.937896728515625 205.4186248779296875 205.4186248779296875 204.8829193115234375 205.221282958984375 205.221282958984375 207.3846588134765625 206.3462066650390625 206.3462066650390625 209.0006103515625 208.1577606201171875 208.1577606201171875 207.294647216796875 208.65252685546875 208.65252685546875 206.680877685546875 207.143035888671875 207.143035888671875 208.64324951171875 207.253143310546875 207.253143310546875 206.28802490234375 206.558563232421875 206.558563232421875 206.5768280029296875 206.791839599609375 206.791839599609375 206.8761138916015625 207.9392242431640625 207.9392242431640625 207.309295654296875 207.02294921875 207.02294921875 205.5550689697265625 204.6223297119140625 204.6223297119140625 204.3721466064453125 203.576507568359375 203.576507568359375 203.5527801513671875 202.92181396484375 202.92181396484375 202.6914520263671875 202.16839599609375 202.16839599609375 201.854736328125 201.6878814697265625 201.6878814697265625 201.2541961669921875 200.787139892578125 200.787139892578125 201.03466796875 200.4051666259765625 200.4051666259765625 199.67608642578125 199.3017120361328125 199.3017120361328125 199.459747314453125 199.5891876220703125 199.5891876220703125 199.6763763427734375 199.75421142578125 199.75421142578125 199.741180419921875 199.7208404541015625 199.7208404541015625 199.7374420166015625 199.5595245361328125
 205.9505462646484375 205.9505462646484375 206.1800537109375 205.98822021484375 205.98822021484375 205.853515625 205.9438629150390625 205.9438629150390625 206.4257354736328125 206.3026123046875 206.3026123046875 206.6737060546875 206.590423583984375 206.590423583984375 206.573974609375 206.50347900390625 206.50347900390625 206.5433349609375 208.461334228515625 208.461334228515625 208.7181854248046875 208.235565185546875 208.235565185546875 207.9902496337890625 208.80780029296875 208.80780029296875 207.4559173583984375 207.593109130859375 207.593109130859375 206.8372344970703125 206.5187225341796875 206.5187225341796875 206.6298675537109375 206.4030303955078125 206.4030303955078125 206.132965087890625 205.91015625 205.91015625 205.4255828857421875 205.5184478759765625 205.5184478759765625 205.69976806640625 205.560272216796875 205.560272216796875 205.4780120849609375 206.1101226806640625 206.1101226806640625 206.166961669921875 206.0018463134765625 206.0018463134765625 205.37847900390625 205.8639373779296875 205.8639373779296875 206.766510009765625 206.2464141845703125 206.2464141845703125 207.460601806640625 208.878936767578125 208.878936767578125 207.73468017578125 206.2342987060546875 206.2342987060546875 207.8736724853515625 207.3136749267578125 207.3136749267578125 207.4889068603515625 206.475067138671875 206.475067138671875 205.9990386962890625 206.10980224609375 206.10980224609375 206.755096435546875 208.1469879150390625 208.1469879150390625 209.564300537109375 209.7300567626953125 209.7300567626953125 208.243560791015625 205.132354736328125 205.132354736328125 206.932464599609375 205.4664154052734375 205.4664154052734375 204.1782684326171875 203.506927490234375 203.506927490234375 203.0723876953125 202.470458984375 202.470458984375 201.746917724609375 201.6136322021484375 201.6136322021484375 201.3625030517578125 200.782989501953125 200.782989501953125 201.0527496337890625 200.2596435546875 200.2596435546875 199.833404541015625 199.432647705078125 199.432647705078125 199.480804443359375 199.982666015625 199.982666015625 199.7298583984375 199.96282958984375 199.96282958984375 199.7213134765625 199.8878631591796875 199.8878631591796875 199.892547607421875 199.4045562744140625
