ncols        48
nrows        27
xllcorner    30.460138877778
yllcorner    50.519027788889
cellsize     0.000277777778
 107.4814910888671875 107.4814910888671875 107.29346466064453125 106.21105194091796875 106.21105194091796875 107.48601531982421875 105.26171112060546875 105.26171112060546875 104.4132537841796875 105.61998748779296875 105.61998748779296875 106.07991790771484375 105.62271881103515625 105.62271881103515625 105.60422515869140625 105.1973419189453125 105.1973419189453125 104.956573486328125 105.48935699462890625 105.48935699462890625 106.53253173828125 105.95758819580078125 105.95758819580078125 106.90671539306640625 107.7693939208984375 107.7693939208984375 105.29051971435546875 103.0022125244140625 103.0022125244140625 99.5617218017578125 99.60286712646484375 99.60286712646484375 98.8182373046875 97.59859466552734375 97.59859466552734375 97.47756195068359375 97.86759185791015625 97.86759185791015625 97.85218048095703125 97.2362213134765625 97.2362213134765625 98.59002685546875 99.3999481201171875 99.3999481201171875 99.75337982177734375 99.29277801513671875 99.29277801513671875 99.8851470947265625
 108.2156219482421875 108.2156219482421875 107.17337799072265625 107.550445556640625 107.550445556640625 108.32114410400390625 104.96314239501953125 104.96314239501953125 104.08986663818359375 104.0968475341796875 104.0968475341796875 105.28995513916015625 104.7153472900390625 104.7153472900390625 105.4423980712890625 105.12485504150390625 105.12485504150390625 104.46257781982421875 103.56899261474609375 103.56899261474609375 103.74969482421875 104.08170318603515625 104.08170318603515625 103.27378082275390625 103.80225372314453125 103.80225372314453125 102.420562744140625 100.86687469482421875 100.86687469482421875 100.0686798095703125 99.1038055419921875 99.1038055419921875 98.76543426513671875 98.19261932373046875 98.19261932373046875 97.36582183837890625 97.41857147216796875 97.41857147216796875 97.45487213134765625 98.47666168212890625 98.47666168212890625 98.01232147216796875 97.49486541748046875 97.49486541748046875 98.17301177978515625 98.3268280029296875 98.3268280029296875 99.86818695068359375
 109.600067138671875 109.600067138671875 109.4781036376953125 111.86806488037109375 111.86806488037109375 109.886810302734375 106.94957733154296875 106.94957733154296875 107.9674072265625 108.353424072265625 108.353424072265625 109.34468841552734375 106.26091766357421875 106.26091766357421875 106.06037139892578125 105.41126251220703125 105.41126251220703125 105.31668853759765625 104.88576507568359375 104.88576507568359375 104.130767822265625 103.1837615966796875 103.1837615966796875 102.24768829345703125 101.4351654052734375 101.4351654052734375 100.66168975830078125 100.06122589111328125 100.06122589111328125 100.05400848388671875 98.76351165771484375 98.76351165771484375 98.53375244140625 98.90643310546875 98.90643310546875 96.7599029541015625 96.8746185302734375 96.8746185302734375 97.6759796142578125 97.74730682373046875 97.74730682373046875 96.37082672119140625 94 94 94 94 94 97.95406341552734375
 110.385833740234375 110.385833740234375 109.32517242431640625 109.50899505615234375 109.50899505615234375 108.299591064453125 108.1761474609375 108.1761474609375 108.36676788330078125 107.83379364013671875 107.83379364013671875 108.04122161865234375 108.1467132568359375 108.1467132568359375 107.43311309814453125 107.3822174072265625 107.3822174072265625 107.290283203125 107.7555389404296875 107.7555389404296875 106.5109405517578125 104.47699737548828125 104.47699737548828125 103.86978912353515625 102.87584686279296875 102.87584686279296875 101.40149688720703125 99.4932403564453125 99.4932403564453125 99.0820770263671875 100.01758575439453125 100.01758575439453125 99.89852142333984375 99.125946044921875 99.125946044921875 98.8813018798828125 98.6546783447265625 98.6546783447265625 97.9426727294921875 96.95461273193359375 96.95461273193359375 95.347076416015625 94 94 94 94 94 97.56830596923828125
 110.628875732421875 110.628875732421875 108.62470245361328125 108.91007232666015625 108.91007232666015625 108.89495849609375 109.5822906494140625 109.5822906494140625 107.8484039306640625 107.54480743408203125 107.54480743408203125 108.66373443603515625 110.657928466796875 110.657928466796875 112.03435516357421875 111.4275665283203125 111.4275665283203125 108.49578094482421875 106.91943359375 106.91943359375 106.48155975341796875 105.9672393798828125 105.9672393798828125 106.0846710205078125 105.4787445068359375 105.4787445068359375 105.54706573486328125 99.88967132568359375 99.88967132568359375 98.9102935791015625 99.72845458984375 99.72845458984375 99.79618072509765625 99.6013946533203125 99.6013946533203125 98.873687744140625 99.80315399169921875 99.80315399169921875 97.15064239501953125 96.7052154541015625 96.7052154541015625 94 94 94 94 94 94 95.3657684326171875
 111.2624053955078125 111.2624053955078125 109.1513824462890625 111.0046539306640625 111.0046539306640625 110.17467498779296875 109.28265380859375 109.28265380859375 108.6115264892578125 108.343353271484375 108.343353271484375 111.67227935791015625 120.1159820556640625 120.1159820556640625 108.95670318603515625 109.3542938232421875 109.3542938232421875 108.85886383056640625 106.91834259033203125 106.91834259033203125 107.86759185791015625 106.43111419677734375 106.43111419677734375 106.20412445068359375 105.63703155517578125 105.63703155517578125 104.538482666015625 100.56977081298828125 100.56977081298828125 99.04782867431640625 99.60906982421875 99.60906982421875 99.36182403564453125 100.31545257568359375 100.31545257568359375 99.4015655517578125 100.072998046875 100.072998046875 97.47063446044921875 95.41509246826171875 95.41509246826171875 94 94 94 94 94 94 99.25324249267578125
 112.36241912841796875 112.36241912841796875 112.25122833251953125 112.14798736572265625 112.14798736572265625 113.89067840576171875 110.95981597900390625 110.95981597900390625 110.39105987548828125 109.33115386962890625 109.33115386962890625 113.987091064453125 115.34082794189453125 115.34082794189453125 112.2881927490234375 108.19244384765625 108.19244384765625 106.74059295654296875 107.32234954833984375 107.32234954833984375 110.09960174560546875 108.22454071044921875 108.22454071044921875 107.51503753662109375 104.9452667236328125 104.9452667236328125 103.54711151123046875 101.04325103759765625 101.04325103759765625 99.583984375 99.47570037841796875 99.47570037841796875 99.78466033935546875 99.33391571044921875 99.33391571044921875 99.4194793701171875 99.25725555419921875 99.25725555419921875 97.8336029052734375 95.69284820556640625 95.69284820556640625 94 94 94 94 94 94 99.572601318359375
 112.9185791015625 112.9185791015625 113.41954803466796875 116.1402587890625 116.1402587890625 113.5141448974609375 110.39498138427734375 110.39498138427734375 110.7665863037109375 109.01738739013671875 109.01738739013671875 109.84569549560546875 109.9111328125 109.9111328125 109.245147705078125 108.683013916015625 108.683013916015625 108.03179931640625 108.96390533447265625 108.96390533447265625 111.34584808349609375 109.53868865966796875 109.53868865966796875 107.3548583984375 105.02428436279296875 105.02428436279296875 102.45317840576171875 100.69826507568359375 100.69826507568359375 99.09027862548828125 99.58013153076171875 99.58013153076171875 99.4837646484375 99.07171630859375 99.07171630859375 99.40087890625 98.70137786865234375 98.70137786865234375 97.67603302001953125 98.951629638671875 98.951629638671875 94 94 94 94 94 94 97.4199676513671875
 111.53501129150390625 111.53501129150390625 112.7119903564453125 118.529296875 118.529296875 116.1895599365234375 115.3829803466796875 115.3829803466796875 115.7758331298828125 110.14464569091796875 110.14464569091796875 109.51300048828125 108.7314453125 108.7314453125 108.12127685546875 108.2118377685546875 108.2118377685546875 108.45653533935546875 107.95308685302734375 107.95308685302734375 109.127105712890625 110.09272003173828125 110.09272003173828125 106.6597747802734375 104.51166534423828125 104.51166534423828125 102.08873748779296875 101.52099609375 101.52099609375 99.544647216796875 99.970428466796875 99.970428466796875 100.10436248779296875 99.43294525146484375 99.43294525146484375 99.7216339111328125 99.47985076904296875 99.47985076904296875 98.57826995849609375 98.88660430908203125 98.88660430908203125 94 94 94 94 94 94 99.080108642578125
 109.9550018310546875 109.9550018310546875 112.41847991943359375 113.75597381591796875 113.75597381591796875 111.4788665771484375 117.7029876708984375 117.7029876708984375 112.107757568359375 110.00287628173828125 110.00287628173828125 109.26911163330078125 110.08721923828125 110.08721923828125 109.285430908203125 108.18941497802734375 108.18941497802734375 108.78052520751953125 108.3568267822265625 108.3568267822265625 108.22772216796875 107.9275360107421875 107.9275360107421875 106.40283203125 105.11419677734375 105.11419677734375 105.023406982421875 103.4214630126953125 103.4214630126953125 100.02744293212890625 99.360748291015625 99.360748291015625 100.09964752197265625 98.9683837890625 98.9683837890625 99.00445556640625 99.8671722412109375 99.8671722412109375 98.81058502197265625 96.3466339111328125 96.3466339111328125 94.2537078857421875 94 94 94 94 94 98.30200958251953125
 112.8817901611328125 112.8817901611328125 111.49703216552734375 111.84297943115234375 111.84297943115234375 113.0616607666015625 117.55579376220703125 117.55579376220703125 110.6253814697265625 111.207794189453125 111.207794189453125 111.48110198974609375 111.61547088623046875 111.61547088623046875 113.63469696044921875 112.579071044921875 112.579071044921875 111.3925933837890625 110.772003173828125 110.772003173828125 110.42855072021484375 108.3929443359375 108.3929443359375 106.30246734619140625 106.42328643798828125 106.42328643798828125 106.91613006591796875 103.85517120361328125 103.85517120361328125 102.24575042724609375 100.2010955810546875 100.2010955810546875 99.97254180908203125 99.42591094970703125 99.42591094970703125 99.11060333251953125 99.24568939208984375 99.24568939208984375 99.448150634765625 97.60736083984375 97.60736083984375 94 94 94 94 94 94 97.00582122802734375
 110.95731353759765625 110.95731353759765625 110.08626556396484375 110.83347320556640625 110.83347320556640625 112.22408294677734375 112.3162994384765625 112.3162994384765625 110.13968658447265625 112.36681365966796875 112.36681365966796875 110.87120819091796875 109.934234619140625 109.934234619140625 116.73671722412109375 116.38483428955078125 116.38483428955078125 111.328887939453125 110.63365936279296875 110.63365936279296875 108.8187713623046875 108.00194549560546875 108.00194549560546875 109.48926544189453125 109.3646087646484375 109.3646087646484375 108.4404449462890625 103.44481658935546875 103.44481658935546875 101.00003814697265625 99.9071807861328125 99.9071807861328125 100.53623199462890625 99.52793121337890625 99.52793121337890625 99.060516357421875 98.8706207275390625 98.8706207275390625 98.47247314453125 97.66420745849609375 97.66420745849609375 94 94 94 94 94 94 97.10988616943359375
 113.31085205078125 113.31085205078125 114.4393310546875 112.28896331787109375 112.28896331787109375 110.4928741455078125 110.15471649169921875 110.15471649169921875 110.07360076904296875 110.09729766845703125 110.09729766845703125 110.115447998046875 110.1916046142578125 110.1916046142578125 111.91349029541015625 109.7741851806640625 109.7741851806640625 106.49433135986328125 110.2652130126953125 110.2652130126953125 107.53397369384765625 107.50737762451171875 107.50737762451171875 109.590240478515625 109.12847900390625 109.12847900390625 108.560882568359375 103.99575042724609375 103.99575042724609375 101.1171417236328125 99.9624176025390625 99.9624176025390625 100.128021240234375 99.60205841064453125 99.60205841064453125 98.623504638671875 98.8236236572265625 98.8236236572265625 98.549041748046875 98.0305633544921875 98.0305633544921875 94 94 94 94 94 94 96.37784576416015625
 117.90642547607421875 117.90642547607421875 112.6298065185546875 111.4923248291015625 111.4923248291015625 109.3890228271484375 109.705810546875 109.705810546875 109.0121002197265625 108.7929534912109375 108.7929534912109375 108.990753173828125 109.88355255126953125 109.88355255126953125 109.9334259033203125 107.86037445068359375 107.86037445068359375 106.00493621826171875 108.41180419921875 108.41180419921875 107.42102813720703125 107.1332855224609375 107.1332855224609375 106.5826568603515625 106.27178192138671875 106.27178192138671875 105.45269012451171875 104.36508941650390625 104.36508941650390625 104.0574493408203125 101.3751220703125 101.3751220703125 100.33642578125 98.51009368896484375 98.51009368896484375 98.83982086181640625 98.43479156494140625 98.43479156494140625 97.6008758544921875 97.0699462890625 97.0699462890625 94.6292266845703125 94 94 94 94 94 96.4766998291015625
 114.42147064208984375 114.42147064208984375 112.9652099609375 111.9672393798828125 111.9672393798828125 111.45275115966796875 110.0419769287109375 110.0419769287109375 109.48416900634765625 108.541778564453125 108.541778564453125 108.14199066162109375 106.19542694091796875 106.19542694091796875 110.07833099365234375 110.04422760009765625 110.04422760009765625 108.10591888427734375 107.86792755126953125 107.86792755126953125 107.1818084716796875 106.3221893310546875 106.3221893310546875 105.4544219970703125 105.32645416259765625 105.32645416259765625 104.6208953857421875 104.33878326416015625 104.33878326416015625 104.7234954833984375 103.0514678955078125 103.0514678955078125 100.3937225341796875 98.163909912109375 98.163909912109375 98.35357666015625 97.672454833984375 97.672454833984375 98.43396759033203125 99.08048248291015625 99.08048248291015625 94 94 94 94 94 94 96.5132293701171875
 113.47657012939453125 113.47657012939453125 114.52933502197265625 114.749237060546875 114.749237060546875 111.8040924072265625 109.53520965576171875 109.53520965576171875 109.83353424072265625 108.29958343505859375 108.29958343505859375 107.76244354248046875 107.12518310546875 107.12518310546875 109.29434967041015625 108.94739532470703125 108.94739532470703125 107.868011474609375 107.7458953857421875 107.7458953857421875 106.94622802734375 105.8497314453125 105.8497314453125 105.71898651123046875 105.2215576171875 105.2215576171875 105.342071533203125 105.17546844482421875 105.17546844482421875 105.68019866943359375 101.83878326416015625 101.83878326416015625 100.2723846435546875 98.78632354736328125 98.78632354736328125 98.412689208984375 97.29669952392578125 97.29669952392578125 96.99828338623046875 97.6249237060546875 97.6249237060546875 94 94 94 94 94 94 96.98108673095703125
 117.20493316650390625 117.20493316650390625 116.82675933837890625 114.03143310546875 114.03143310546875 117.04259490966796875 110.47759246826171875 110.47759246826171875 111.92697906494140625 110.14481353759765625 110.14481353759765625 109.25136566162109375 108.31275177001953125 108.31275177001953125 108.01845550537109375 108.13144683837890625 108.13144683837890625 108.37646484375 109.54613494873046875 109.54613494873046875 107.4347076416015625 106.987213134765625 106.987213134765625 105.656402587890625 104.80670928955078125 104.80670928955078125 105.34511566162109375 105.27040863037109375 105.27040863037109375 105.2892913818359375 101.2942962646484375 101.2942962646484375 100.39935302734375 98.0301971435546875 98.0301971435546875 98.2405853271484375 97.687957763671875 97.687957763671875 98.1845550537109375 99.45935821533203125 99.45935821533203125 94 94 94 94 94 94 97.1947784423828125
 114.83954620361328125 114.83954620361328125 115.58393096923828125 115.278045654296875 115.278045654296875 113.99747467041015625 111.8104400634765625 111.8104400634765625 121.2669830322265625 117.74834442138671875 117.74834442138671875 115.5575408935546875 111.7502288818359375 111.7502288818359375 108.36930084228515625 108.47946929931640625 108.47946929931640625 109.23879241943359375 110.97992706298828125 110.97992706298828125 107.79813385009765625 105.7540130615234375 105.7540130615234375 105.3810577392578125 105.48863983154296875 105.48863983154296875 105.46306610107421875 104.96912384033203125 104.96912384033203125 102.9043731689453125 101.4019012451171875 101.4019012451171875 101.0562744140625 98.99391937255859375 98.99391937255859375 98.54392242431640625 96.9614105224609375 96.9614105224609375 98.64112091064453125 99.6268157958984375 99.6268157958984375 94 94 94 94 94 94 97.6113128662109375
 113.4391326904296875 113.4391326904296875 115.12888336181640625 117.44866943359375 117.44866943359375 111.6692352294921875 114.4795074462890625 114.4795074462890625 116.61290740966796875 117.3446197509765625 117.3446197509765625 120.42693328857421875 114.8262176513671875 114.8262176513671875 109.72315216064453125 109.31746673583984375 109.31746673583984375 109.518096923828125 109.49460601806640625 109.49460601806640625 106.92461395263671875 105.48952484130859375 105.48952484130859375 105.38303375244140625 105.18764495849609375 105.18764495849609375 104.13796234130859375 103.54010009765625 103.54010009765625 101.90486907958984375 100.6373443603515625 100.6373443603515625 100.08727264404296875 98.6069488525390625 98.6069488525390625 98.15906524658203125 97.01139068603515625 97.01139068603515625 97.64775848388671875 99.30547332763671875 99.30547332763671875 94 94 94 94 94 94 97.69281005859375
 117.6228179931640625 117.6228179931640625 113.11893463134765625 112.1131439208984375 112.1131439208984375 110.98105621337890625 115.51981353759765625 115.51981353759765625 113.265411376953125 114.37409210205078125 114.37409210205078125 117.13597869873046875 114.5262908935546875 114.5262908935546875 110.894195556640625 110.1676483154296875 110.1676483154296875 109.78528594970703125 106.86913299560546875 106.86913299560546875 106.41245269775390625 107.09540557861328125 107.09540557861328125 107.67839813232421875 105.25124359130859375 105.25124359130859375 102.04782867431640625 100.3426055908203125 100.3426055908203125 101.15057373046875 100.49039459228515625 100.49039459228515625 100.8273162841796875 98.778839111328125 98.778839111328125 98.30748748779296875 97.57708740234375 97.57708740234375 97.42612457275390625 97.3998870849609375 97.3998870849609375 94 94 94 94 94 94 97.6509246826171875
 112.961883544921875 112.961883544921875 113.2287445068359375 114.1317138671875 114.1317138671875 114.02124786376953125 112.68442535400390625 112.68442535400390625 112.897491455078125 112.65975189208984375 112.65975189208984375 114.70189666748046875 113.566558837890625 113.566558837890625 111.63843536376953125 113.596649169921875 113.596649169921875 110.84879302978515625 106.18646240234375 106.18646240234375 107.58800506591796875 108.93721771240234375 108.93721771240234375 109.461517333984375 107.38527679443359375 107.38527679443359375 103.65865325927734375 100.69742584228515625 100.69742584228515625 100.7355499267578125 100.19419097900390625 100.19419097900390625 99.8951873779296875 98.579864501953125 98.579864501953125 97.93999481201171875 97.4916534423828125 97.4916534423828125 98.22776031494140625 98.45026397705078125 98.45026397705078125 94 94 94 94 94 94 95.6291351318359375
 110.301300048828125 110.301300048828125 115.27584075927734375 113.52834320068359375 113.52834320068359375 114.6115264892578125 108.03185272216796875 108.03185272216796875 109.995391845703125 112.1446075439453125 112.1446075439453125 114.91650390625 114.49100494384765625 114.49100494384765625 112.619415283203125 116.3830413818359375 116.3830413818359375 107.6415863037109375 106.836273193359375 106.836273193359375 109.12975311279296875 106.62226104736328125 106.62226104736328125 106.31497955322265625 104.841217041015625 104.841217041015625 102.6623077392578125 101.6229095458984375 101.6229095458984375 101.36338043212890625 99.74608612060546875 99.74608612060546875 99.84381103515625 99.3667449951171875 99.3667449951171875 98.127197265625 96.923980712890625 96.923980712890625 98.06246185302734375 97.7563629150390625 97.7563629150390625 94 94 94 94 94 94 97.51424407958984375
 116.8205108642578125 116.8205108642578125 118.1866607666015625 114.85524749755859375 114.85524749755859375 115.32852935791015625 107.70871734619140625 107.70871734619140625 110.1670074462890625 111.25040435791015625 111.25040435791015625 111.80450439453125 112.75054168701171875 112.75054168701171875 112.313873291015625 113.7614898681640625 113.7614898681640625 107.16794586181640625 107.70008087158203125 107.70008087158203125 112.92464447021484375 106.8277740478515625 106.8277740478515625 103.63897705078125 106.1632080078125 106.1632080078125 107.86544036865234375 107.45850372314453125 107.45850372314453125 102.1107330322265625 100.2241058349609375 100.2241058349609375 99.55593109130859375 98.7151641845703125 98.7151641845703125 97.8564300537109375 97.48500823974609375 97.48500823974609375 97.13714599609375 95.313140869140625 95.313140869140625 94 94 94 94 96.620147705078125 96.620147705078125 98.55983734130859375
 113.143035888671875 113.143035888671875 112.7070770263671875 114.8555145263671875 114.8555145263671875 117.7261962890625 111.89820098876953125 111.89820098876953125 107.77850341796875 107.89423370361328125 107.89423370361328125 112.71295166015625 110.85394287109375 110.85394287109375 111.8693084716796875 108.68402862548828125 108.68402862548828125 106.83472442626953125 108.08631134033203125 108.08631134033203125 111.91524505615234375 106.42890167236328125 106.42890167236328125 105.49160003662109375 111.07794189453125 111.07794189453125 112.27323150634765625 111.24071502685546875 111.24071502685546875 107.58969879150390625 101.8516387939453125 101.8516387939453125 99.3603363037109375 98.60552215576171875 98.60552215576171875 98.52625274658203125 97.693603515625 97.693603515625 97.49359130859375 96.729827880859375 96.729827880859375 94 94 94 94 96.155242919921875 96.155242919921875 98.8692474365234375
 114.47748565673828125 114.47748565673828125 109.88347625732421875 110.553314208984375 110.553314208984375 109.84798431396484375 110.16644287109375 110.16644287109375 110.43210601806640625 110.42456817626953125 110.42456817626953125 113.52721405029296875 110.01172637939453125 110.01172637939453125 111.4342193603515625 107.11363983154296875 107.11363983154296875 106.5422515869140625 107.9341583251953125 107.9341583251953125 112.48076629638671875 106.95557403564453125 106.95557403564453125 104.5068511962890625 111.54019927978515625 111.54019927978515625 111.9318084716796875 112.14511871337890625 112.14511871337890625 112.3332061767578125 106.63631439208984375 106.63631439208984375 98.92664337158203125 99.28865814208984375 99.28865814208984375 98.6217041015625 98.00536346435546875 98.00536346435546875 100.10128021240234375 97.2684478759765625 97.2684478759765625 94 94 94 94 96.84759521484375 96.84759521484375 98.7613677978515625
 110.70890045166015625 110.70890045166015625 113.2969512939453125 111.22693634033203125 111.22693634033203125 108.94185638427734375 112.8453826904296875 112.8453826904296875 116.39252471923828125 113.40094757080078125 113.40094757080078125 114.39398193359375 110.43463134765625 110.43463134765625 111.47235870361328125 107.16631317138671875 107.16631317138671875 106.66457366943359375 107.93886566162109375 107.93886566162109375 109.55956268310546875 107.02698516845703125 107.02698516845703125 105.6078948974609375 111.609527587890625 111.609527587890625 112.1402587890625 112.059051513671875 112.059051513671875 112.41524505615234375 104.16719818115234375 104.16719818115234375 98.3883514404296875 100.67138671875 100.67138671875 98.5426788330078125 97.55670166015625 97.55670166015625 99.0141448974609375 97.8711700439453125 97.8711700439453125 94 94 94 94 95.9957733154296875 95.9957733154296875 98.00452423095703125
 117.1091156005859375 117.1091156005859375 114.55338287353515625 116.21085357666015625 116.21085357666015625 115.58785247802734375 116.5792083740234375 116.5792083740234375 115.0897674560546875 115.945281982421875 115.945281982421875 113.055816650390625 113.70992279052734375 113.70992279052734375 109.820526123046875 107.7243804931640625 107.7243804931640625 106.94840240478515625 108.5900726318359375 108.5900726318359375 113.36824798583984375 106.6251220703125 106.6251220703125 104.34368896484375 107.6781158447265625 107.6781158447265625 109.93932342529296875 107.06147003173828125 107.06147003173828125 106.35836029052734375 102.87441253662109375 102.87441253662109375 99.078643798828125 99.46810150146484375 99.46810150146484375 98.51122283935546875 98.14234161376953125 98.14234161376953125 99.07070159912109375 97.1311798095703125 97.1311798095703125 94 94 94 94 95.92157745361328125 95.92157745361328125 97.8222503662109375
